;START_OF_HEADER
;HEADER_VERSION:0.1
;FLAVOR:Griffin
;GENERATOR.NAME:Cura_SteamEngine
;GENERATOR.VERSION:2.4.0
;GENERATOR.BUILD_DATE:2017-02-13
;TARGET_MACHINE.NAME:Ultimaker 3
;EXTRUDER_TRAIN.0.INITIAL_TEMPERATURE:205
;EXTRUDER_TRAIN.0.MATERIAL.VOLUME_USED:209
;EXTRUDER_TRAIN.0.MATERIAL.GUID:506c9f0d-e3aa-4bd4-b2d2-23e2425b1aa9
;EXTRUDER_TRAIN.0.NOZZLE.DIAMETER:0.4
;EXTRUDER_TRAIN.1.INITIAL_TEMPERATURE:100
;EXTRUDER_TRAIN.1.MATERIAL.VOLUME_USED:227
;EXTRUDER_TRAIN.1.MATERIAL.GUID:506c9f0d-e3aa-4bd4-b2d2-23e2425b1aa9
;EXTRUDER_TRAIN.1.NOZZLE.DIAMETER:0.4
;BUILD_PLATE.INITIAL_TEMPERATURE:60
;PRINT.TIME:575
;PRINT.SIZE.MIN.X:94.331
;PRINT.SIZE.MIN.Y:6
;PRINT.SIZE.MIN.Z:0.27
;PRINT.SIZE.MAX.X:213
;PRINT.SIZE.MAX.Y:207
;PRINT.SIZE.MAX.Z:4.07
;END_OF_HEADER
;Generated with Cura_SteamEngine 2.4.0

T0
G92 E0

M109 S205
G0 F15000 X170 Y6 Z2
G280
G1 F1500 E-6.5
;LAYER_COUNT:13
;LAYER:0
M107
M104 T1 S59.8
M104 T1 S205
M204 S625
M205 X6
G1 Z4
G0 F4285.7 X116.917 Y97.747 Z2.27
M204 S500
M205 X5
;TYPE:SKIRT
G1 Z0.27
G1 F1500 E0
G1 F1200 X117.262 Y97.372 E0.00755
G1 X117.918 Y96.74 E0.02104
G1 X118.289 Y96.422 E0.02828
G1 X119.262 Y95.681 E0.0464
G1 X119.752 Y95.359 E0.05508
G1 X121.015 Y94.649 E0.07655
G1 X121.491 Y94.419 E0.08438
G1 X122.35 Y94.069 E0.09812
G1 X122.85 Y93.901 E0.10593
G1 X124.241 Y93.528 E0.12726
G1 X124.836 Y93.414 E0.13624
G1 X126.064 Y93.268 E0.15456
G1 X126.531 Y93.238 E0.16149
G1 X127.457 Y93.231 E0.17521
G1 X127.942 Y93.255 E0.1824
G1 X129.148 Y93.385 E0.20037
G1 X129.614 Y93.462 E0.20736
G1 X130.511 Y93.662 E0.22098
G1 X131.012 Y93.807 E0.2287
G1 X132.374 Y94.293 E0.25013
G1 X132.927 Y94.536 E0.25907
G1 X134.016 Y95.111 E0.27732
G1 X134.549 Y95.445 E0.28663
G1 X135.855 Y96.407 E0.31066
G1 X136.367 Y96.853 E0.32072
G1 X137.367 Y97.874 E0.34189
G1 X137.757 Y98.333 E0.35081
G1 X138.486 Y99.328 E0.36909
G1 X138.796 Y99.817 E0.37766
G1 X139.47 Y101.065 E0.39867
G1 X139.674 Y101.501 E0.4058
G1 X139.951 Y102.192 E0.41683
G1 X140.12 Y102.707 E0.42486
G1 X140.537 Y104.32 E0.44954
G1 X140.652 Y104.978 E0.45943
G1 X140.78 Y106.326 E0.47949
G1 X140.794 Y106.925 E0.48837
G1 X140.733 Y108.213 E0.50747
G1 X140.663 Y108.808 E0.51634
G1 X140.394 Y110.212 E0.53752
G1 X140.228 Y110.824 E0.54691
G1 X139.75 Y112.177 E0.56817
G1 X139.546 Y112.658 E0.57591
G1 X139.123 Y113.505 E0.58993
G1 X138.85 Y113.973 E0.59796
G1 X138.047 Y115.168 E0.61929
G1 X137.681 Y115.638 E0.62811
G1 X136.873 Y116.536 E0.64601
G1 X136.456 Y116.94 E0.65461
G1 X135.365 Y117.86 E0.67575
G1 X134.941 Y118.174 E0.68356
G1 X134.149 Y118.688 E0.69755
G1 X133.734 Y118.925 E0.70463
G1 X132.647 Y119.467 E0.72262
G1 X132.057 Y119.708 E0.73206
G1 X130.486 Y120.214 E0.75651
G1 X129.973 Y120.344 E0.76435
G1 X129.267 Y120.477 E0.77499
G1 X128.796 Y120.539 E0.78203
G1 X127.387 Y120.643 E0.80296
G1 X126.741 Y120.641 E0.81253
G1 X125.271 Y120.524 E0.83437
G1 X124.636 Y120.424 E0.84389
G1 X123.245 Y120.096 E0.86507
G1 X122.678 Y119.919 E0.87386
G1 X121.544 Y119.476 E0.8919
G1 X121.019 Y119.229 E0.90049
G1 X119.792 Y118.543 E0.92132
G1 X119.262 Y118.191 E0.93074
G1 X118.109 Y117.295 E0.95237
G1 X117.713 Y116.947 E0.96018
G1 X117.042 Y116.276 E0.97424
G1 X116.712 Y115.904 E0.98161
G1 X115.966 Y114.958 E0.99945
G1 X115.701 Y114.58 E1.00629
G1 X115.205 Y113.786 E1.02016
G1 X114.954 Y113.323 E1.02796
G1 X114.362 Y112.044 E1.04884
G1 X114.136 Y111.438 E1.05842
G1 X113.729 Y110.024 E1.08021
G1 X113.599 Y109.396 E1.08971
G1 X113.416 Y107.978 E1.11089
G1 X113.381 Y107.381 E1.11975
G1 X113.397 Y106.165 E1.13777
G1 X113.445 Y105.586 E1.14637
G1 X113.662 Y104.158 E1.16777
G1 X113.808 Y103.528 E1.17735
G1 X114.241 Y102.148 E1.19877
G1 X114.433 Y101.648 E1.20671
G1 X114.826 Y100.793 E1.22065
G1 X115.047 Y100.376 E1.22764
G1 X115.667 Y99.348 E1.24542
G1 X116.009 Y98.862 E1.25422
G1 X116.917 Y97.747 E1.27553
M204 S625
M205 X6
G0 F4285.7 X117.188 Y97.968
M204 S500
M205 X5
G1 F1200 X117.504 Y97.624 E1.28245
G1 X118.16 Y96.992 E1.29594
G1 X118.501 Y96.7 E1.30259
G1 X119.474 Y95.959 E1.32071
G1 X119.923 Y95.664 E1.32866
G1 X121.186 Y94.954 E1.35013
G1 X121.623 Y94.743 E1.35732
G1 X122.482 Y94.393 E1.37106
G1 X122.94 Y94.239 E1.37821
G1 X124.331 Y93.866 E1.39955
G1 X124.878 Y93.761 E1.4078
G1 X126.106 Y93.615 E1.42612
G1 X126.534 Y93.588 E1.43247
G1 X127.46 Y93.581 E1.44619
G1 X127.904 Y93.603 E1.45277
G1 X129.11 Y93.733 E1.47074
G1 X129.538 Y93.804 E1.47717
G1 X130.435 Y94.004 E1.49078
G1 X130.894 Y94.136 E1.49786
G1 X132.256 Y94.622 E1.51928
G1 X132.763 Y94.845 E1.52748
G1 X133.852 Y95.42 E1.54572
G1 X134.341 Y95.727 E1.55428
G1 X135.647 Y96.689 E1.57831
G1 X136.117 Y97.098 E1.58754
G1 X137.117 Y98.119 E1.60871
G1 X137.475 Y98.54 E1.61689
G1 X138.204 Y99.535 E1.63516
G1 X138.488 Y99.984 E1.64303
G1 X139.162 Y101.232 E1.66404
G1 X139.349 Y101.631 E1.67057
G1 X139.626 Y102.322 E1.6816
G1 X139.781 Y102.794 E1.68896
G1 X140.198 Y104.407 E1.71364
G1 X140.304 Y105.011 E1.72272
G1 X140.432 Y106.359 E1.74278
G1 X140.445 Y106.908 E1.75092
G1 X140.384 Y108.196 E1.77002
G1 X140.319 Y108.742 E1.77816
G1 X140.05 Y110.146 E1.79934
G1 X139.898 Y110.708 E1.80796
G1 X139.42 Y112.061 E1.82922
G1 X139.233 Y112.501 E1.8363
G1 X138.81 Y113.348 E1.85032
G1 X138.559 Y113.778 E1.8577
G1 X137.756 Y114.973 E1.87903
G1 X137.421 Y115.404 E1.88711
G1 X136.613 Y116.302 E1.90501
G1 X136.23 Y116.672 E1.9129
G1 X135.139 Y117.592 E1.93404
G1 X134.751 Y117.88 E1.9412
G1 X133.959 Y118.394 E1.95518
G1 X133.578 Y118.612 E1.96168
G1 X132.491 Y119.154 E1.97968
G1 X131.95 Y119.374 E1.98833
G1 X130.379 Y119.88 E2.01278
G1 X129.908 Y120 E2.01998
G1 X129.202 Y120.133 E2.03062
G1 X128.77 Y120.189 E2.03707
G1 X127.361 Y120.293 E2.058
G1 X126.769 Y120.292 E2.06677
G1 X125.299 Y120.175 E2.08861
G1 X124.717 Y120.084 E2.09734
G1 X123.326 Y119.756 E2.11851
G1 X122.805 Y119.593 E2.1266
G1 X121.671 Y119.15 E2.14463
G1 X121.19 Y118.923 E2.15251
G1 X119.963 Y118.237 E2.17334
G1 X119.476 Y117.915 E2.18198
G1 X118.323 Y117.019 E2.20361
G1 X117.961 Y116.699 E2.21077
G1 X117.29 Y116.028 E2.22483
G1 X116.987 Y115.687 E2.23159
G1 X116.241 Y114.741 E2.24943
G1 X115.998 Y114.395 E2.2557
G1 X115.502 Y113.601 E2.26956
G1 X115.271 Y113.176 E2.27673
G1 X114.679 Y111.897 E2.29761
G1 X114.472 Y111.341 E2.30639
G1 X114.065 Y109.927 E2.32819
G1 X113.946 Y109.351 E2.3369
G1 X113.763 Y107.933 E2.35808
G1 X113.731 Y107.386 E2.3662
G1 X113.747 Y106.17 E2.38421
G1 X113.791 Y105.639 E2.39211
G1 X114.008 Y104.211 E2.4135
G1 X114.142 Y103.633 E2.42229
G1 X114.575 Y102.253 E2.44372
G1 X114.751 Y101.795 E2.45099
G1 X115.144 Y100.94 E2.46493
G1 X115.347 Y100.557 E2.47135
G1 X115.967 Y99.529 E2.48913
G1 X116.28 Y99.083 E2.4972
G1 X117.188 Y97.968 E2.5185
M204 S625
M205 X6
G0 F4285.7 X117.46 Y98.189
M204 S500
M205 X5
G1 F1200 X117.747 Y97.876 E2.52479
G1 X118.403 Y97.244 E2.53829
G1 X118.713 Y96.979 E2.54433
G1 X119.686 Y96.238 E2.56244
G1 X120.095 Y95.969 E2.5697
G1 X121.358 Y95.259 E2.59116
G1 X121.755 Y95.068 E2.59768
G1 X122.614 Y94.718 E2.61143
G1 X123.031 Y94.577 E2.61795
G1 X124.422 Y94.204 E2.63928
G1 X124.919 Y94.109 E2.64677
G1 X126.147 Y93.963 E2.66509
G1 X126.536 Y93.938 E2.67087
G1 X127.462 Y93.931 E2.68459
G1 X127.867 Y93.951 E2.69059
G1 X129.073 Y94.081 E2.70856
G1 X129.462 Y94.145 E2.7144
G1 X130.359 Y94.345 E2.72801
G1 X130.777 Y94.466 E2.73446
G1 X132.139 Y94.952 E2.75588
G1 X132.6 Y95.155 E2.76334
G1 X133.689 Y95.73 E2.78159
G1 X134.134 Y96.009 E2.78937
G1 X135.44 Y96.971 E2.81339
G1 X135.867 Y97.342 E2.82177
G1 X136.867 Y98.363 E2.84294
G1 X137.192 Y98.747 E2.8504
G1 X137.921 Y99.742 E2.86867
G1 X138.18 Y100.15 E2.87583
G1 X138.854 Y101.398 E2.89684
G1 X139.024 Y101.761 E2.90278
G1 X139.301 Y102.452 E2.9138
G1 X139.442 Y102.882 E2.92051
G1 X139.859 Y104.495 E2.94519
G1 X139.955 Y105.044 E2.95344
G1 X140.083 Y106.392 E2.9735
G1 X140.095 Y106.892 E2.98091
G1 X140.034 Y108.18 E3.00001
G1 X139.975 Y108.676 E3.00741
G1 X139.706 Y110.08 E3.02859
G1 X139.568 Y110.591 E3.03643
G1 X139.09 Y111.944 E3.05768
G1 X138.92 Y112.345 E3.06413
G1 X138.497 Y113.192 E3.07816
G1 X138.269 Y113.583 E3.08486
G1 X137.466 Y114.778 E3.10619
G1 X137.16 Y115.17 E3.11356
G1 X136.352 Y116.068 E3.13145
G1 X136.004 Y116.405 E3.13863
G1 X134.913 Y117.325 E3.15977
G1 X134.56 Y117.587 E3.16628
G1 X133.768 Y118.101 E3.18027
G1 X133.422 Y118.299 E3.18617
G1 X132.335 Y118.841 E3.20416
G1 X131.843 Y119.041 E3.21203
G1 X130.272 Y119.547 E3.23648
G1 X129.844 Y119.656 E3.24302
G1 X129.138 Y119.789 E3.25367
G1 X128.744 Y119.84 E3.25955
G1 X127.335 Y119.944 E3.28048
G1 X126.796 Y119.943 E3.28846
G1 X125.326 Y119.826 E3.31031
G1 X124.797 Y119.743 E3.31824
G1 X123.406 Y119.415 E3.33941
G1 X122.932 Y119.267 E3.34677
G1 X121.798 Y118.824 E3.3648
G1 X121.361 Y118.618 E3.37196
G1 X120.134 Y117.932 E3.39278
G1 X119.691 Y117.638 E3.40066
G1 X118.538 Y116.742 E3.42229
G1 X118.208 Y116.452 E3.4288
G1 X117.537 Y115.781 E3.44285
G1 X117.262 Y115.471 E3.44899
G1 X116.516 Y114.525 E3.46684
G1 X116.294 Y114.21 E3.47255
G1 X115.798 Y113.416 E3.48641
G1 X115.589 Y113.029 E3.49293
G1 X114.997 Y111.75 E3.51381
G1 X114.809 Y111.244 E3.5218
G1 X114.402 Y109.83 E3.5436
G1 X114.293 Y109.306 E3.55153
G1 X114.11 Y107.888 E3.57271
G1 X114.081 Y107.391 E3.58008
G1 X114.097 Y106.175 E3.5981
G1 X114.137 Y105.691 E3.60529
G1 X114.354 Y104.263 E3.62669
G1 X114.476 Y103.738 E3.63467
G1 X114.909 Y102.358 E3.6561
G1 X115.069 Y101.941 E3.66271
G1 X115.462 Y101.086 E3.67665
G1 X115.646 Y100.737 E3.6825
G1 X116.266 Y99.709 E3.70028
G1 X116.552 Y99.304 E3.70762
G1 X117.46 Y98.189 E3.72893
M204 S625
M205 X6
G0 F4285.7 X117.731 Y98.41
M204 S500
M205 X5
G1 F1200 X117.99 Y98.128 E3.7346
G1 X118.646 Y97.496 E3.74809
G1 X118.925 Y97.257 E3.75353
G1 X119.898 Y96.516 E3.77165
G1 X120.266 Y96.274 E3.77817
G1 X121.529 Y95.564 E3.79964
G1 X121.887 Y95.392 E3.80552
G1 X122.746 Y95.042 E3.81926
G1 X123.122 Y94.915 E3.82514
G1 X124.513 Y94.542 E3.84647
G1 X124.96 Y94.456 E3.85322
G1 X126.188 Y94.31 E3.87153
G1 X126.539 Y94.288 E3.87674
G1 X127.465 Y94.281 E3.89046
G1 X127.829 Y94.299 E3.89586
G1 X129.035 Y94.429 E3.91383
G1 X129.386 Y94.487 E3.9191
G1 X130.283 Y94.687 E3.93271
G1 X130.659 Y94.796 E3.93851
G1 X132.021 Y95.282 E3.95993
G1 X132.436 Y95.464 E3.96665
G1 X133.525 Y96.039 E3.98489
G1 X133.926 Y96.291 E3.9919
G1 X135.232 Y97.253 E4.01593
G1 X135.617 Y97.587 E4.02348
G1 X136.617 Y98.608 E4.04465
G1 X136.91 Y98.954 E4.05137
G1 X137.639 Y99.949 E4.06964
G1 X137.872 Y100.316 E4.07608
G1 X138.546 Y101.564 E4.09709
G1 X138.699 Y101.892 E4.10245
G1 X138.976 Y102.583 E4.11348
G1 X139.103 Y102.969 E4.1195
G1 X139.52 Y104.582 E4.14418
G1 X139.607 Y105.077 E4.15162
G1 X139.735 Y106.425 E4.17168
G1 X139.745 Y106.875 E4.17835
G1 X139.684 Y108.163 E4.19745
G1 X139.631 Y108.61 E4.20412
G1 X139.362 Y110.014 E4.2253
G1 X139.238 Y110.475 E4.23237
G1 X138.76 Y111.828 E4.25362
G1 X138.606 Y112.189 E4.25944
G1 X138.183 Y113.036 E4.27346
G1 X137.978 Y113.388 E4.2795
G1 X137.175 Y114.583 E4.30082
G1 X136.9 Y114.936 E4.30745
G1 X136.092 Y115.834 E4.32535
G1 X135.779 Y116.137 E4.3318
G1 X134.688 Y117.057 E4.35294
G1 X134.369 Y117.293 E4.35882
G1 X133.577 Y117.807 E4.3728
G1 X133.266 Y117.985 E4.37811
G1 X132.179 Y118.527 E4.39611
G1 X131.735 Y118.708 E4.40321
G1 X130.164 Y119.214 E4.42766
G1 X129.779 Y119.312 E4.43354
G1 X129.073 Y119.445 E4.44418
G1 X128.719 Y119.491 E4.44947
G1 X127.31 Y119.595 E4.4704
G1 X126.824 Y119.594 E4.4776
G1 X125.354 Y119.477 E4.49944
G1 X124.877 Y119.402 E4.5066
G1 X123.486 Y119.074 E4.52777
G1 X123.06 Y118.941 E4.53438
G1 X121.926 Y118.498 E4.55241
G1 X121.532 Y118.312 E4.55887
G1 X120.305 Y117.626 E4.57969
G1 X119.906 Y117.362 E4.58678
G1 X118.753 Y116.466 E4.60841
G1 X118.456 Y116.204 E4.61428
G1 X117.785 Y115.533 E4.62833
G1 X117.537 Y115.254 E4.63386
G1 X116.791 Y114.308 E4.65171
G1 X116.591 Y114.024 E4.65685
G1 X116.095 Y113.23 E4.67072
G1 X115.907 Y112.882 E4.67658
G1 X115.315 Y111.603 E4.69746
G1 X115.145 Y111.147 E4.70467
G1 X114.738 Y109.733 E4.72646
G1 X114.64 Y109.261 E4.7336
G1 X114.457 Y107.843 E4.75478
G1 X114.431 Y107.395 E4.76143
G1 X114.447 Y106.179 E4.77945
G1 X114.483 Y105.744 E4.78591
G1 X114.7 Y104.316 E4.80731
G1 X114.81 Y103.842 E4.81452
G1 X115.243 Y102.462 E4.83594
G1 X115.387 Y102.087 E4.84189
G1 X115.78 Y101.232 E4.85583
G1 X115.946 Y100.918 E4.86109
G1 X116.566 Y99.89 E4.87888
G1 X116.823 Y99.525 E4.88549
G1 X117.731 Y98.41 E4.90679
M204 S625
M205 X6
G1 F1500 E-1.59321
G0 F4285.7 X117.433 Y98.935
G0 X120.1 Y101.268
M204 S500
M205 X5
;TYPE:WALL-INNER
G1 F1500 E4.90679
G1 F1200 X120.042 Y101.339 E4.90795
G0 X120.096 Y101.266
G1 X120.183 Y101.167 E4.90962
G0 X120.1 Y101.268
M204 S625
M205 X6
G1 F1500 E-1.59038
G0 F4285.7 X120.134 Y101.297
G0 X122.144 Y99.474
G0 X122.122 Y99.438
M204 S500
M205 X5
G1 F1500 E4.90962
G1 F1200 X121.954 Y99.55 E4.91219
G0 X122.117 Y99.433
G1 X122.241 Y99.358 E4.91402
G0 X122.122 Y99.438
M204 S625
M205 X6
G1 F1500 E-1.58598
G0 F4285.7 X122.144 Y99.474
G0 X123.944 Y98.556
G0 X123.928 Y98.515
M204 S500
M205 X5
G1 F1500 E4.91402
G1 F1200 X123.841 Y98.546 E4.91519
G1 X123.927 Y98.51 E4.91521
G1 X124.205 Y98.418 E4.91893
G0 X123.928 Y98.515
M204 S625
M205 X6
G1 F1500 E-1.58107
G0 F4285.7 X123.573 Y94.899
G0 X125.428 Y94.507
G0 X127.32 Y94.399
G0 X129.211 Y94.578
G0 X131.049 Y95.041
G0 X132.799 Y95.775
G0 X134.417 Y96.764
G0 X135.868 Y97.986
G0 X133.846 Y101.007
M204 S500
M205 X5
G1 F1500 E4.91893
G1 F1200 X133.745 Y100.891 E4.92088
G0 X133.85 Y101.003
G1 X133.935 Y101.108 E4.9226
G0 X133.846 Y101.007
M204 S625
M205 X6
G1 F1500 E-1.5774
G0 F4285.7 X133.813 Y101.035
G0 X135.978 Y105.927
G0 X136.023 Y105.923
M204 S500
M205 X5
G1 F1500 E4.9226
G1 F1200 X136.009 Y105.802 E4.92414
G0 X136.027 Y105.922
G1 X136.033 Y106.009 E4.92525
G0 X136.023 Y105.923
M204 S625
M205 X6
G1 F1500 E-1.57475
G0 F4285.7 X135.978 Y105.927
G0 X133.809 Y112.846
G0 X133.841 Y112.874
M204 S500
M205 X5
G1 F1500 E4.92525
G1 F1200 X133.96 Y112.737 E4.92755
G0 X133.846 Y112.878
G1 X133.753 Y112.976 E4.92927
G0 X133.841 Y112.874
M204 S625
M205 X6
G1 F1500 E-1.57073
G0 F4285.7 X135.868 Y115.89
G0 X134.417 Y117.112
G0 X132.799 Y118.101
G0 X131.049 Y118.835
G0 X129.211 Y119.298
G0 X127.32 Y119.477
G0 X125.428 Y119.369
G0 X123.573 Y118.977
G0 X121.796 Y118.31
G0 X120.952 Y117.877
G0 X122.106 Y114.429
M204 S500
M205 X5
G1 F1500 E4.92927
G1 F1200 X122.293 Y114.55 E4.9321
G0 X122.103 Y114.434
G1 X122.007 Y114.365 E4.9336
G0 X122.106 Y114.429
M204 S625
M205 X6
G1 F1500 E-1.5664
G0 F4285.7 X122.13 Y114.393
G0 X120.575 Y113.08
G0 X120.543 Y113.11
M204 S500
M205 X5
G1 F1500 E4.9336
G1 F1200 X120.658 Y113.231 E4.93572
G0 X120.539 Y113.114
G1 X120.436 Y112.997 E4.9377
G0 X120.543 Y113.11
M204 S625
M205 X6
G1 F1500 E-1.5623
G0 F4285.7 X120.575 Y113.08
G0 X119.366 Y111.468
G0 X119.328 Y111.491
M204 S500
M205 X5
G1 F1500 E4.9377
G1 F1200 X119.386 Y111.592 E4.93918
G1 X119.323 Y111.493 E4.9392
G1 X119.217 Y111.296 E4.94204
G0 X119.328 Y111.491
M204 S625
M205 X6
G0 F4285.7 X119.041 Y111.656
M204 S500
M205 X5
;TYPE:WALL-OUTER
G1 F1200 X118.706 Y111.03 E4.95255
G1 X118.417 Y110.377 E4.96313
G1 X118.185 Y109.721 E4.97344
G1 X117.999 Y109.036 E4.98395
G1 X117.866 Y108.344 E4.99439
G1 X117.786 Y107.636 E5.00495
G1 X117.759 Y106.938 E5.01529
G1 X117.786 Y106.24 E5.02564
G1 X117.867 Y105.526 E5.03629
G1 X117.999 Y104.839 E5.04665
G1 X118.186 Y104.152 E5.0572
G1 X118.417 Y103.499 E5.06746
G1 X118.708 Y102.841 E5.07811
G1 X119.035 Y102.231 E5.08837
G1 X119.422 Y101.624 E5.09903
G1 X119.84 Y101.066 E5.10936
G1 X120.302 Y100.539 E5.11974
G1 X120.811 Y100.04 E5.1303
G1 X121.355 Y99.581 E5.14084
G1 X121.927 Y99.169 E5.15128
G1 X122.519 Y98.808 E5.16156
G1 X123.159 Y98.48 E5.17221
G1 X123.801 Y98.21 E5.18253
G1 X124.467 Y97.989 E5.19292
G1 X125.164 Y97.814 E5.20357
G1 X125.85 Y97.696 E5.21388
G1 X126.552 Y97.629 E5.22432
G1 X127.257 Y97.615 E5.23477
G1 X127.972 Y97.656 E5.24538
G1 X128.662 Y97.748 E5.25569
G1 X129.352 Y97.894 E5.26614
G1 X130.029 Y98.091 E5.27658
G1 X130.693 Y98.341 E5.28709
G1 X131.331 Y98.637 E5.29751
G1 X131.954 Y98.987 E5.3081
G1 X132.537 Y99.375 E5.31847
G1 X133.098 Y99.812 E5.329
G1 X133.62 Y100.287 E5.33946
