;START_OF_HEADER
;HEADER_VERSION:0.1
;FLAVOR:Griffin
;GENERATOR.NAME:Cura_SteamEngine
;GENERATOR.VERSION:2.4.0
;GENERATOR.BUILD_DATE:2017-02-13
;TARGET_MACHINE.NAME:Ultimaker 3
;EXTRUDER_TRAIN.0.INITIAL_TEMPERATURE:205
;EXTRUDER_TRAIN.0.MATERIAL.VOLUME_USED:1500
;EXTRUDER_TRAIN.0.MATERIAL.GUID:506c9f0d-e3aa-4bd4-b2d2-23e2425b1aa9
;EXTRUDER_TRAIN.0.NOZZLE.DIAMETER:0.4
;EXTRUDER_TRAIN.1.INITIAL_TEMPERATURE:100
;EXTRUDER_TRAIN.1.MATERIAL.VOLUME_USED:1201
;EXTRUDER_TRAIN.1.MATERIAL.GUID:506c9f0d-e3aa-4bd4-b2d2-23e2425b1aa9
;EXTRUDER_TRAIN.1.NOZZLE.DIAMETER:0.4
;BUILD_PLATE.INITIAL_TEMPERATURE:60
;PRINT.TIME:4064
;PRINT.SIZE.MIN.X:71.759
;PRINT.SIZE.MIN.Y:6
;PRINT.SIZE.MIN.Z:0.27
;PRINT.SIZE.MAX.X:213
;PRINT.SIZE.MAX.Y:207
;PRINT.SIZE.MAX.Z:4.07
;END_OF_HEADER
;Generated with Cura_SteamEngine 2.4.0

T0
G92 E0

M109 S205
G0 F15000 X170 Y6 Z2
G280
G1 F1500 E-6.5
;LAYER_COUNT:13
;LAYER:0
M107
M204 S625
M205 X6
G1 Z4
G0 F4285.7 X93.154 Y68.498 Z2.27
M204 S500
M205 X5
;TYPE:SKIRT
G1 Z0.27
G1 F1500 E0
G1 F1200 X93.417 Y68.16 E0.00634
G1 X93.975 Y67.527 E0.01884
G1 X94.251 Y67.246 E0.02468
G1 X95.182 Y66.402 E0.04329
G1 X95.567 Y66.1 E0.05054
G1 X96.713 Y65.32 E0.07108
G1 X97.167 Y65.058 E0.07884
G1 X98.453 Y64.439 E0.09998
G1 X98.944 Y64.246 E0.1078
G1 X100.314 Y63.824 E0.12903
G1 X100.732 Y63.723 E0.1354
G1 X101.622 Y63.564 E0.1488
G1 X102.022 Y63.516 E0.15476
G1 X103.221 Y63.441 E0.17256
G1 X103.704 Y63.444 E0.17972
G1 X105.132 Y63.551 E0.20093
G1 X105.557 Y63.609 E0.20728
G1 X106.451 Y63.787 E0.22078
G1 X106.873 Y63.898 E0.22725
G1 X108.226 Y64.347 E0.24837
G1 X108.717 Y64.553 E0.25625
G1 X109.972 Y65.193 E0.27712
G1 X110.415 Y65.461 E0.28479
G1 X111.567 Y66.281 E0.30574
G1 X112.043 Y66.689 E0.31503
G1 X118.426 Y73.217 E0.45027
G1 X122.484 Y76.883 E0.53128
G1 X126.724 Y80.299 E0.61194
G1 X131.163 Y83.477 E0.69281
G1 X136.064 Y86.576 E0.7787
G1 X136.223 Y86.682 E0.78154
G1 X137.404 Y87.522 E0.803
G1 X137.815 Y87.865 E0.81093
G1 X138.841 Y88.86 E0.83211
G1 X139.192 Y89.255 E0.83993
G1 X140.057 Y90.391 E0.86108
G1 X140.345 Y90.835 E0.86892
G1 X141.029 Y92.086 E0.89004
G1 X141.246 Y92.566 E0.89785
G1 X141.721 Y93.864 E0.91832
G1 X141.856 Y94.328 E0.92548
G1 X142.116 Y95.527 E0.94365
G1 X142.178 Y95.916 E0.94949
G1 X142.274 Y96.856 E0.96349
G1 X142.288 Y97.372 E0.97113
G1 X141.983 Y104.14 E1.07149
G1 X142.013 Y109.644 E1.15303
G1 X142.142 Y112.35 E1.19316
G1 X142.558 Y117.667 E1.27216
G1 X142.559 Y118.207 E1.28016
G1 X142.313 Y121.466 E1.32857
G1 X142.058 Y126.954 E1.40995
G1 X142.112 Y132.439 E1.49121
G1 X142.473 Y138.329 E1.57862
G1 X142.47 Y138.806 E1.58569
G1 X142.364 Y140.229 E1.60683
G1 X142.305 Y140.659 E1.61326
G1 X142.125 Y141.558 E1.62684
G1 X142.055 Y141.845 E1.63121
G1 X141.856 Y142.533 E1.64182
G1 X141.735 Y142.884 E1.64732
G1 X141.293 Y143.969 E1.66468
G1 X141.094 Y144.379 E1.67143
G1 X140.438 Y145.535 E1.69112
G1 X140.123 Y145.999 E1.69943
G1 X139.027 Y147.367 E1.72539
G1 X138.614 Y147.801 E1.73427
G1 X137.556 Y148.739 E1.75521
G1 X137.138 Y149.057 E1.76299
G1 X135.945 Y149.832 E1.78407
G1 X135.397 Y150.123 E1.79326
G1 X133.643 Y150.864 E1.82146
G1 X133.15 Y151.031 E1.82917
G1 X132.245 Y151.264 E1.84302
G1 X131.82 Y151.346 E1.84943
G1 X130.442 Y151.525 E1.87001
G1 X129.813 Y151.55 E1.87934
G1 X127.599 Y151.44 E1.91218
G1 X127.428 Y151.427 E1.91472
G1 X125.117 Y151.199 E1.94912
G1 X119.662 Y150.893 E2.03005
G1 X114.193 Y150.895 E2.11106
G1 X108.719 Y151.207 E2.19228
G1 X105.331 Y151.537 E2.24271
G1 X104.952 Y151.554 E2.24833
G1 X103.725 Y151.541 E2.26651
G1 X103.234 Y151.501 E2.2738
G1 X101.815 Y151.286 E2.29506
G1 X101.263 Y151.156 E2.30346
G1 X99.701 Y150.653 E2.32777
G1 X99.209 Y150.453 E2.33564
G1 X98.141 Y149.921 E2.35331
G1 X97.721 Y149.674 E2.36053
G1 X96.534 Y148.861 E2.38184
G1 X96.122 Y148.531 E2.38966
G1 X95.102 Y147.58 E2.41032
G1 X94.75 Y147.199 E2.41801
G1 X93.874 Y146.1 E2.43882
G1 X93.581 Y145.671 E2.44652
G1 X92.873 Y144.45 E2.46743
G1 X92.642 Y143.972 E2.47529
G1 X92.119 Y142.642 E2.49646
G1 X91.987 Y142.235 E2.5028
G1 X91.754 Y141.335 E2.51657
G1 X91.669 Y140.892 E2.52325
G1 X91.49 Y139.47 E2.54448
G1 X91.466 Y138.861 E2.55351
G1 X91.815 Y131.598 E2.66123
G1 X91.791 Y126.104 E2.74261
G1 X91.665 Y123.399 E2.78272
G1 X91.324 Y118.802 E2.85101
G1 X91.321 Y118.316 E2.85821
G1 X91.58 Y114.264 E2.91835
G1 X91.712 Y108.779 E2.99963
G1 X91.534 Y103.326 E3.08045
G1 X91.079 Y98.044 E3.15898
G1 X91.067 Y97.657 E3.16472
G1 X91.263 Y89.493 E3.28569
G1 X91.085 Y84.05 E3.36636
G1 X90.474 Y77.466 E3.46431
G1 X90.459 Y77.136 E3.4692
G1 X90.461 Y75.73 E3.49003
G1 X90.501 Y75.208 E3.49779
G1 X90.711 Y73.819 E3.5186
G1 X90.838 Y73.273 E3.5269
G1 X91.344 Y71.69 E3.55152
G1 X91.549 Y71.188 E3.55955
G1 X92.082 Y70.121 E3.57722
G1 X92.328 Y69.703 E3.5844
G1 X93.154 Y68.498 E3.60604
M204 S625
M205 X6
G0 F4285.7 X93.442 Y68.696
M204 S500
M205 X5
G1 F1200 X93.679 Y68.391 E3.61177
G1 X94.237 Y67.758 E3.62427
G1 X94.487 Y67.506 E3.62952
G1 X95.418 Y66.662 E3.64814
G1 X95.764 Y66.389 E3.65467
G1 X96.91 Y65.609 E3.6752
G1 X97.319 Y65.373 E3.6822
G1 X98.605 Y64.754 E3.70334
G1 X99.047 Y64.581 E3.71037
G1 X100.417 Y64.159 E3.73161
G1 X100.794 Y64.067 E3.73735
G1 X101.684 Y63.908 E3.75075
G1 X102.044 Y63.865 E3.75612
G1 X103.243 Y63.79 E3.77391
G1 X103.678 Y63.793 E3.78036
G1 X105.106 Y63.9 E3.80157
G1 X105.489 Y63.952 E3.8073
G1 X106.383 Y64.13 E3.8208
G1 X106.763 Y64.231 E3.82662
G1 X108.116 Y64.68 E3.84774
G1 X108.558 Y64.865 E3.85484
G1 X109.813 Y65.505 E3.87571
G1 X110.212 Y65.746 E3.88261
G1 X111.364 Y66.566 E3.90356
G1 X111.793 Y66.933 E3.91192
G1 X118.189 Y73.474 E4.04744
G1 X122.249 Y77.143 E4.1285
G1 X126.53 Y80.591 E4.20993
G1 X130.95 Y83.756 E4.29046
G1 X135.877 Y86.871 E4.37681
G1 X136.02 Y86.968 E4.37937
G1 X137.201 Y87.808 E4.40084
G1 X137.571 Y88.116 E4.40797
G1 X138.597 Y89.111 E4.42914
G1 X138.913 Y89.467 E4.43619
G1 X139.778 Y90.603 E4.45734
G1 X140.038 Y91.003 E4.46441
G1 X140.722 Y92.254 E4.48553
G1 X140.918 Y92.686 E4.49256
G1 X141.393 Y93.984 E4.51303
G1 X141.514 Y94.402 E4.51948
G1 X141.774 Y95.601 E4.53765
G1 X141.83 Y95.951 E4.5429
G1 X141.926 Y96.891 E4.5569
G1 X141.939 Y97.357 E4.5638
G1 X141.633 Y104.146 E4.66447
G1 X141.663 Y109.662 E4.74618
G1 X141.792 Y112.36 E4.7862
G1 X142.209 Y117.694 E4.86545
G1 X142.21 Y118.181 E4.87267
G1 X141.966 Y121.424 E4.92084
G1 X141.708 Y126.959 E5.00292
G1 X141.762 Y132.443 E5.08416
G1 X142.124 Y138.35 E5.17183
G1 X142.121 Y138.78 E5.1782
G1 X142.015 Y140.203 E5.19934
G1 X141.962 Y140.59 E5.20512
G1 X141.782 Y141.489 E5.2187
G1 X141.719 Y141.748 E5.22265
G1 X141.52 Y142.436 E5.23326
G1 X141.41 Y142.752 E5.23822
G1 X140.968 Y143.837 E5.25557
G1 X140.789 Y144.206 E5.26165
G1 X140.133 Y145.362 E5.28134
G1 X139.85 Y145.78 E5.28882
G1 X138.754 Y147.148 E5.31478
G1 X138.382 Y147.539 E5.32278
G1 X137.324 Y148.477 E5.34372
G1 X136.948 Y148.764 E5.35073
G1 X135.755 Y149.539 E5.3718
G1 X135.261 Y149.801 E5.38009
G1 X133.507 Y150.542 E5.40829
G1 X133.063 Y150.692 E5.41523
G1 X132.158 Y150.925 E5.42908
G1 X131.775 Y150.999 E5.43486
G1 X130.397 Y151.178 E5.45544
G1 X129.83 Y151.2 E5.46385
G1 X127.616 Y151.09 E5.49668
G1 X127.463 Y151.079 E5.49895
G1 X125.149 Y150.851 E5.5334
G1 X119.665 Y150.543 E5.61476
G1 X114.191 Y150.545 E5.69585
G1 X108.69 Y150.859 E5.77747
G1 X105.297 Y151.189 E5.82797
G1 X104.955 Y151.204 E5.83304
G1 X103.728 Y151.191 E5.85122
G1 X103.286 Y151.155 E5.85779
G1 X101.867 Y150.94 E5.87905
G1 X101.37 Y150.823 E5.88661
G1 X99.808 Y150.32 E5.91092
G1 X99.365 Y150.14 E5.918
G1 X98.297 Y149.608 E5.93568
G1 X97.919 Y149.385 E5.94218
G1 X96.732 Y148.572 E5.96349
G1 X96.361 Y148.275 E5.97053
G1 X95.341 Y147.324 E5.99119
G1 X95.023 Y146.981 E5.99812
G1 X94.147 Y145.882 E6.01894
G1 X93.883 Y145.496 E6.02586
G1 X93.175 Y144.275 E6.04677
G1 X92.967 Y143.844 E6.05386
G1 X92.444 Y142.514 E6.07503
G1 X92.325 Y142.148 E6.08073
G1 X92.092 Y141.248 E6.0945
G1 X92.016 Y140.849 E6.10052
G1 X91.837 Y139.427 E6.12175
G1 X91.816 Y138.878 E6.12989
G1 X92.165 Y131.613 E6.23763
G1 X92.141 Y126.11 E6.31915
G1 X92.012 Y123.34 E6.36023
G1 X91.673 Y118.776 E6.42802
G1 X91.67 Y118.339 E6.4345
G1 X91.93 Y114.27 E6.49489
G1 X92.062 Y108.767 E6.57644
G1 X91.884 Y103.304 E6.6574
G1 X91.428 Y98.014 E6.73606
G1 X91.417 Y97.665 E6.74123
G1 X91.613 Y89.48 E6.86251
G1 X91.434 Y84.023 E6.94339
G1 X90.823 Y77.434 E7.04141
G1 X90.809 Y77.136 E7.04583
G1 X90.811 Y75.73 E7.06666
G1 X90.847 Y75.26 E7.07364
G1 X91.057 Y73.871 E7.09445
G1 X91.172 Y73.379 E7.10194
G1 X91.678 Y71.796 E7.12656
G1 X91.862 Y71.344 E7.13379
G1 X92.395 Y70.277 E7.15145
G1 X92.616 Y69.901 E7.15791
G1 X93.442 Y68.696 E7.17956
M204 S625
M205 X6
G1 F1500 E0.67956
G0 F4285.7 X93.571 Y68.727
G0 X96.428 Y70.831
M204 S500
M205 X5
;TYPE:WALL-INNER
G1 F1500 E7.17956
G1 F1200 X96.309 Y70.979 E7.18197
G0 X96.421 Y70.827
G1 X96.565 Y70.66 E7.18476
G0 X96.428 Y70.831
M204 S625
M205 X6
G0 F4285.7 X96.849 Y70.341
M204 S500
M205 X5
G1 F1200 X96.74 Y70.457 E7.18678
G0 X96.843 Y70.337
G1 X96.991 Y70.19 E7.18943
G0 X96.849 Y70.341
M204 S625
M205 X6
G0 F4285.7 X97.342 Y69.846
M204 S500
M205 X5
G1 F1200 X97.261 Y69.92 E7.19082
G0 X97.338 Y69.843
G1 X97.512 Y69.693 E7.19373
G0 X97.342 Y69.846
M204 S625
M205 X6
G0 F4285.7 X97.832 Y69.423
M204 S500
M205 X5
G1 F1200 X97.755 Y69.483 E7.19497
G0 X97.828 Y69.42
G1 X98.055 Y69.253 E7.19855
G0 X97.832 Y69.423
M204 S625
M205 X6
G0 F4285.7 X98.394 Y69.009
M204 S500
M205 X5
G1 F1200 X98.318 Y69.059 E7.1997
G0 X98.391 Y69.005
G1 X98.672 Y68.828 E7.20392
G1 X98.394 Y69.009 E7.20395
M204 S625
M205 X6
G1 F1500 E0.70395
G0 F4285.7 X98.419 Y69.046
G0 X96.044 Y71.422
G0 X96.009 Y71.398
M204 S500
M205 X5
G1 F1500 E7.20395
G1 F1200 X95.914 Y71.537 E7.20609
G0 X96.003 Y71.394
G1 X96.112 Y71.246 E7.20842
G0 X96.009 Y71.398
M204 S625
M205 X6
G0 F4285.7 X95.663 Y71.947
M204 S500
M205 X5
G1 F1200 X95.57 Y72.111 E7.21081
G0 X95.658 Y71.945
G1 X95.727 Y71.834 E7.21247
G0 X95.663 Y71.947
M204 S625
M205 X6
G0 F4285.7 X95.346 Y72.548
M204 S500
M205 X5
G1 F1200 X95.244 Y72.766 E7.21553
G0 X95.34 Y72.546
G1 X95.394 Y72.444 E7.21699
G0 X95.346 Y72.548
M204 S625
M205 X6
G0 F4285.7 X95.081 Y73.153
M204 S500
M205 X5
G1 F1200 X94.986 Y73.405 E7.22041
G0 X95.075 Y73.151
G1 X95.118 Y73.055 E7.22175
G0 X95.081 Y73.153
M204 S625
M205 X6
G1 F1500 E0.72175
G0 F4285.7 X95.121 Y73.169
G0 X94.894 Y79.079
G0 X94.851 Y79.092
M204 S500
M205 X5
G1 F1500 E7.22175
G1 F1200 X94.877 Y79.181 E7.22292
G1 X94.847 Y79.093 E7.22292
G1 X94.773 Y78.818 E7.22654
G0 X94.851 Y79.092
M204 S625
M205 X6
G0 F4285.7 X95.079 Y79.741
M204 S500
M205 X5
G1 F1200 X95.116 Y79.838 E7.22786
G0 X95.075 Y79.743
G1 X94.987 Y79.493 E7.23122
G0 X95.079 Y79.741
M204 S625
M205 X6
G0 F4285.7 X95.345 Y80.348
M204 S500
M205 X5
G1 F1200 X95.395 Y80.455 E7.23272
G0 X95.34 Y80.351
G1 X95.245 Y80.134 E7.23573
G0 X95.345 Y80.348
M204 S625
M205 X6
G0 F4285.7 X95.663 Y80.95
M204 S500
M205 X5
G1 F1200 X95.732 Y81.071 E7.2375
G0 X95.658 Y80.953
G1 X95.564 Y80.776 E7.24004
G0 X95.663 Y80.95
M204 S625
M205 X6
G0 F4285.7 X96.008 Y81.499
M204 S500
M205 X5
G1 F1200 X96.112 Y81.651 E7.24238
G0 X96.003 Y81.503
G1 X95.912 Y81.357 E7.24457
G0 X96.008 Y81.499
M204 S625
M205 X6
G1 F1500 E0.74457
G0 F4285.7 X96.044 Y81.475
G0 X96.458 Y82.036
G0 X96.424 Y82.062
M204 S500
M205 X5
G1 F1500 E7.24457
G1 F1200 X96.565 Y82.237 E7.24742
G0 X96.419 Y82.067
G1 X96.309 Y81.918 E7.24977
G0 X96.424 Y82.062
M204 S625
M205 X6
G0 F4285.7 X96.848 Y82.555
M204 S500
M205 X5
G1 F1200 X96.991 Y82.707 E7.25242
G0 X96.843 Y82.56
G1 X96.74 Y82.44 E7.25443
G0 X96.848 Y82.555
M204 S625
M205 X6
G0 F4285.7 X97.339 Y83.048
M204 S500
M205 X5
G1 F1200 X97.506 Y83.199 E7.25729
G0 X97.336 Y83.052
G1 X97.261 Y82.977 E7.25863
G0 X97.339 Y83.048
M204 S625
M205 X6
G0 F4285.7 X97.831 Y83.472
M204 S500
M205 X5
G1 F1200 X98.051 Y83.642 E7.26216
G0 X97.828 Y83.477
G1 X97.756 Y83.414 E7.26338
G0 X97.831 Y83.472
M204 S625
M205 X6
G0 F4285.7 X98.392 Y83.886
M204 S500
M205 X5
G1 F1200 X98.664 Y84.063 E7.2675
G1 X98.39 Y83.891 E7.26752
G1 X98.321 Y83.84 E7.26861
G0 X98.392 Y83.886
M204 S625
M205 X6
G1 F1500 E0.76861
G0 F4285.7 X98.418 Y83.85
G0 X104.122 Y85.373
G0 X104.125 Y85.418
M204 S500
M205 X5
G1 F1500 E7.26861
G1 F1200 X104.21 Y85.413 E7.26969
G1 X104.125 Y85.422 E7.2697
G1 X103.897 Y85.431 E7.27259
G0 X104.125 Y85.418
M204 S625
M205 X6
G0 F4285.7 X104.795 Y85.342
M204 S500
M205 X5
G1 F1200 X104.918 Y85.324 E7.27417
G0 X104.796 Y85.347
G1 X104.592 Y85.37 E7.27678
G0 X104.795 Y85.342
M204 S625
M205 X6
G0 F4285.7 X105.446 Y85.217
M204 S500
M205 X5
G1 F1200 X105.609 Y85.18 E7.2789
G0 X105.449 Y85.223
G1 X105.238 Y85.263 E7.28162
G0 X105.446 Y85.217
M204 S625
M205 X6
G0 F4285.7 X106.098 Y85.043
M204 S500
M205 X5
G1 F1200 X106.255 Y84.995 E7.28371
G0 X106.101 Y85.048
G1 X105.92 Y85.097 E7.28608
G0 X106.098 Y85.043
M204 S625
M205 X6
G0 F4285.7 X106.737 Y84.819
M204 S500
M205 X5
G1 F1200 X106.928 Y84.743 E7.28869
G0 X106.74 Y84.825
G1 X106.594 Y84.876 E7.29066
G0 X106.737 Y84.819
M204 S625
M205 X6
G0 F4285.7 X107.349 Y84.553
M204 S500
M205 X5
G1 F1200 X107.542 Y84.458 E7.29339
G0 X107.352 Y84.558
G1 X107.219 Y84.616 E7.29523
G0 X107.349 Y84.553
M204 S625
M205 X6
G0 F4285.7 X107.95 Y84.236
M204 S500
M205 X5
G1 F1200 X108.138 Y84.124 E7.29801
G0 X107.953 Y84.24
G1 X107.857 Y84.291 E7.29939
G0 X107.95 Y84.236
M204 S625
M205 X6
G1 F1500 E0.79939
G0 F4285.7 X110.862 Y86.534
G0 X111.981 Y85.641
G0 X113.254 Y84.269
G0 X114.311 Y82.72
G0 X115.125 Y81.029
G0 X115.677 Y79.238
G0 X112.341 Y77.795
M204 S500
M205 X5
G1 F1500 E7.29939
G1 F1200 X112.361 Y77.673 E7.30096
G0 X112.348 Y77.795
G1 X112.31 Y77.996 E7.30355
G0 X112.341 Y77.795
M204 S625
M205 X6
G0 F4285.7 X112.417 Y77.122
M204 S500
M205 X5
G1 F1200 X112.428 Y76.991 E7.30522
G1 X112.423 Y77.123 E7.30524
G1 X112.404 Y77.296 E7.30745
G0 X112.417 Y77.122
M204 S625
M205 X6
G1 F1500 E0.80745
G0 F4285.7 X112.374 Y77.12
G0 X112.374 Y75.777
G0 X112.418 Y75.774
M204 S500
M205 X5
G1 F1500 E7.30745
G1 F1200 X112.404 Y75.604 E7.30962
G1 X112.423 Y75.774 E7.30964
G1 X112.428 Y75.908 E7.31135
G0 X112.418 Y75.774
M204 S625
M205 X6
G0 F4285.7 X112.342 Y75.101
M204 S500
M205 X5
G1 F1200 X112.311 Y74.909 E7.31381
G0 X112.347 Y75.099
G1 X112.361 Y75.218 E7.31533
G0 X112.342 Y75.101
M204 S625
M205 X6
G0 F4285.7 X112.218 Y74.446
M204 S500
M205 X5
G1 F1200 X112.161 Y74.214 E7.31836
G0 X112.223 Y74.444
G1 X112.241 Y74.542 E7.31963
G0 X112.218 Y74.446
M204 S625
M205 X6
G1 F1500 E0.81963
G0 F4285.7 X112.175 Y74.455
G0 X110.855 Y71.422
G0 X110.895 Y71.393
M204 S500
M205 X5
G1 F1500 E7.31963
G1 F1200 X110.68 Y71.101 E7.32423
G1 X110.896 Y71.394 E7.32425
G1 X111.246 Y71.954 E7.33264
G1 X110.895 Y71.393 E7.33265
M204 S625
M205 X6
G1 F1500 E0.83265
G0 F4285.7 X110.855 Y71.422
G0 X109.04 Y69.459
G0 X109.068 Y69.424
M204 S500
M205 X5
G1 F1500 E7.33265
G1 F1200 X109.006 Y69.372 E7.33368
G0 X109.071 Y69.42
G1 X109.285 Y69.605 E7.33727
G0 X109.068 Y69.424
M204 S625
M205 X6
G1 F1500 E0.83727
G0 F4285.7 X109.04 Y69.459
G0 X107.929 Y68.7
G0 X107.951 Y68.662
M204 S500
M205 X5
G1 F1500 E7.33727
G1 F1200 X107.857 Y68.606 E7.33866
G0 X107.953 Y68.657
G1 X108.142 Y68.775 E7.34149
G0 X107.951 Y68.662
M204 S625
M205 X6
G0 F4285.7 X107.35 Y68.345
M204 S500
M205 X5
G1 F1200 X107.219 Y68.281 E7.34334
G0 X107.352 Y68.339
G1 X107.542 Y68.439 E7.34606
G0 X107.35 Y68.345
M204 S625
M205 X6
G0 F4285.7 X106.738 Y68.079
M204 S500
M205 X5
G1 F1200 X106.594 Y68.021 E7.34803
G0 X106.74 Y68.072
G1 X106.928 Y68.154 E7.35064
G0 X106.738 Y68.079
M204 S625
M205 X6
G0 F4285.7 X106.1 Y67.855
M204 S500
M205 X5
G1 F1200 X105.92 Y67.8 E7.35303
G0 X106.101 Y67.849
G1 X106.255 Y67.902 E7.35509
G0 X106.1 Y67.855
M204 S625
M205 X6
G0 F4285.7 X105.448 Y67.681
M204 S500
M205 X5
G1 F1200 X105.238 Y67.634 E7.35782
G0 X105.449 Y67.674
G1 X105.609 Y67.717 E7.35993
G0 X105.448 Y67.681
M204 S625
M205 X6
G0 F4285.7 X104.796 Y67.556
M204 S500
M205 X5
G1 F1200 X104.593 Y67.527 E7.36253
G0 X104.796 Y67.55
G1 X104.918 Y67.573 E7.36411
G0 X104.796 Y67.556
M204 S625
M205 X6
G1 F1500 E0.86411
G0 F4285.7 X104.789 Y67.599
G0 X103.449 Y67.499
G0 X103.45 Y67.453
M204 S500
