;START_OF_HEADER
;HEADER_VERSION:0.1
;FLAVOR:Griffin
;GENERATOR.NAME:Cura_SteamEngine
;GENERATOR.VERSION:2.4.0
;GENERATOR.BUILD_DATE:2017-02-13
;TARGET_MACHINE.NAME:Ultimaker 3
;EXTRUDER_TRAIN.0.INITIAL_TEMPERATURE:205
;EXTRUDER_TRAIN.0.MATERIAL.VOLUME_USED:242
;EXTRUDER_TRAIN.0.MATERIAL.GUID:506c9f0d-e3aa-4bd4-b2d2-23e2425b1aa9
;EXTRUDER_TRAIN.0.NOZZLE.DIAMETER:0.4
;EXTRUDER_TRAIN.1.INITIAL_TEMPERATURE:100
;EXTRUDER_TRAIN.1.MATERIAL.VOLUME_USED:205
;EXTRUDER_TRAIN.1.MATERIAL.GUID:506c9f0d-e3aa-4bd4-b2d2-23e2425b1aa9
;EXTRUDER_TRAIN.1.NOZZLE.DIAMETER:0.4
;BUILD_PLATE.INITIAL_TEMPERATURE:60
;PRINT.TIME:486
;PRINT.SIZE.MIN.X:75.568
;PRINT.SIZE.MIN.Y:6
;PRINT.SIZE.MIN.Z:0.27
;PRINT.SIZE.MAX.X:213
;PRINT.SIZE.MAX.Y:207
;PRINT.SIZE.MAX.Z:4
;END_OF_HEADER
;Generated with Cura_SteamEngine 2.4.0

T0
G92 E0

M109 S205
G0 F15000 X170 Y6 Z2
G280
G1 F1500 E-6.5
;LAYER_COUNT:10
;LAYER:0
M107
M104 T1 S64.5
M104 T1 S205
M204 S625
M205 X6
G1 Z4
G0 F4285.7 X98.938 Y110.952 Z2.27
M204 S500
M205 X5
;TYPE:SKIRT
G1 Z0.27
G1 F1500 E0
G1 F1200 X99.394 Y110.547 E0.00903
G1 X100.643 Y109.59 E0.03234
G1 X101.084 Y109.295 E0.0402
G1 X101.737 Y108.914 E0.0514
G1 X102.164 Y108.696 E0.0585
G1 X103.457 Y108.127 E0.07943
G1 X104.013 Y107.927 E0.08818
G1 X105.202 Y107.592 E0.10648
G1 X105.666 Y107.489 E0.11352
G1 X106.602 Y107.336 E0.12757
G1 X107.137 Y107.284 E0.13553
G1 X108.575 Y107.234 E0.15685
G1 X109.173 Y107.255 E0.16571
G1 X110.385 Y107.385 E0.18377
G1 X110.961 Y107.488 E0.19244
G1 X112.345 Y107.835 E0.21357
G1 X112.947 Y108.035 E0.22297
G1 X114.282 Y108.593 E0.2444
G1 X114.755 Y108.826 E0.25221
G1 X115.569 Y109.293 E0.26612
G1 X116.013 Y109.587 E0.274
G1 X117.141 Y110.439 E0.29494
G1 X117.621 Y110.862 E0.30442
G1 X118.636 Y111.904 E0.32597
G1 X119.018 Y112.355 E0.33472
G1 X119.731 Y113.328 E0.35259
G1 X120.045 Y113.826 E0.36131
G1 X120.724 Y115.09 E0.38257
G1 X120.984 Y115.676 E0.39207
G1 X121.475 Y117.06 E0.41382
G1 X121.643 Y117.682 E0.42336
G1 X121.908 Y119.072 E0.44433
G1 X121.98 Y119.704 E0.45375
G1 X122.034 Y121.139 E0.47502
G1 X122.021 Y121.667 E0.48284
G1 X121.938 Y122.615 E0.49694
G1 X121.858 Y123.14 E0.50481
G1 X121.558 Y124.526 E0.52581
G1 X121.394 Y125.091 E0.53453
G1 X120.971 Y126.241 E0.55268
G1 X120.734 Y126.769 E0.56125
G1 X120.08 Y127.996 E0.58185
G1 X119.74 Y128.534 E0.59128
G1 X118.862 Y129.712 E0.61304
G1 X118.52 Y130.115 E0.62087
G1 X117.874 Y130.787 E0.63468
G1 X117.478 Y131.149 E0.64263
G1 X116.373 Y132.039 E0.66364
G1 X115.886 Y132.378 E0.67243
G1 X114.807 Y133.021 E0.69104
G1 X114.234 Y133.306 E0.70052
G1 X112.703 Y133.928 E0.725
G1 X111.935 Y134.158 E0.73688
G1 X110.06 Y134.53 E0.76519
G1 X109.445 Y134.606 E0.77437
G1 X108.529 Y134.651 E0.78796
G1 X107.987 Y134.643 E0.79599
G1 X106.502 Y134.525 E0.81805
G1 X105.9 Y134.433 E0.82708
G1 X104.722 Y134.165 E0.84497
G1 X104.167 Y133.998 E0.85356
G1 X102.813 Y133.487 E0.87499
G1 X102.337 Y133.273 E0.88273
G1 X101.543 Y132.855 E0.89602
G1 X101.101 Y132.586 E0.90368
G1 X99.932 Y131.774 E0.92477
G1 X99.467 Y131.4 E0.93361
G1 X98.557 Y130.555 E0.952
G1 X98.224 Y130.208 E0.95913
G1 X97.601 Y129.481 E0.97331
G1 X97.298 Y129.082 E0.98073
G1 X96.622 Y128.072 E0.99873
G1 X96.337 Y127.578 E1.00718
G1 X95.723 Y126.322 E1.02789
G1 X95.476 Y125.691 E1.03793
G1 X94.993 Y124.097 E1.0626
G1 X94.852 Y123.458 E1.0723
G1 X94.684 Y122.258 E1.09025
G1 X94.645 Y121.792 E1.09717
G1 X94.618 Y120.843 E1.11124
G1 X94.632 Y120.355 E1.11847
G1 X94.736 Y119.166 E1.13615
G1 X94.803 Y118.703 E1.14308
G1 X94.991 Y117.766 E1.15723
G1 X95.078 Y117.411 E1.16265
G1 X95.281 Y116.717 E1.17336
G1 X95.432 Y116.288 E1.1801
G1 X95.9 Y115.157 E1.19823
G1 X96.159 Y114.635 E1.20686
G1 X96.88 Y113.405 E1.22798
G1 X97.172 Y112.972 E1.23572
G1 X97.763 Y112.201 E1.25011
G1 X98.09 Y111.822 E1.25752
G1 X98.938 Y110.952 E1.27552
M204 S625
M205 X6
G0 F4285.7 X99.189 Y111.196
M204 S500
M205 X5
G1 F1200 X99.607 Y110.825 E1.2838
G1 X100.856 Y109.868 E1.30711
G1 X101.26 Y109.597 E1.31431
G1 X101.913 Y109.216 E1.32551
G1 X102.305 Y109.016 E1.33203
G1 X103.598 Y108.447 E1.35296
G1 X104.108 Y108.264 E1.36098
G1 X105.297 Y107.929 E1.37928
G1 X105.723 Y107.835 E1.38575
G1 X106.659 Y107.682 E1.39979
G1 X107.149 Y107.633 E1.40709
G1 X108.587 Y107.583 E1.4284
G1 X109.135 Y107.603 E1.43653
G1 X110.347 Y107.733 E1.45458
G1 X110.876 Y107.827 E1.46254
G1 X112.26 Y108.174 E1.48368
G1 X112.812 Y108.358 E1.4923
G1 X114.147 Y108.916 E1.51373
G1 X114.581 Y109.13 E1.5209
G1 X115.395 Y109.597 E1.5348
G1 X115.803 Y109.866 E1.54204
G1 X116.931 Y110.718 E1.56298
G1 X117.371 Y111.106 E1.57167
G1 X118.386 Y112.148 E1.59322
G1 X118.736 Y112.562 E1.60125
G1 X119.449 Y113.535 E1.61912
G1 X119.737 Y113.991 E1.62711
G1 X120.416 Y115.255 E1.64836
G1 X120.654 Y115.793 E1.65708
G1 X121.145 Y117.177 E1.67883
G1 X121.299 Y117.747 E1.68758
G1 X121.564 Y119.137 E1.70854
G1 X121.63 Y119.717 E1.71719
G1 X121.684 Y121.152 E1.73846
G1 X121.672 Y121.636 E1.74563
G1 X121.589 Y122.584 E1.75973
G1 X121.516 Y123.066 E1.76695
G1 X121.216 Y124.452 E1.78795
G1 X121.066 Y124.97 E1.79594
G1 X120.643 Y126.12 E1.81409
G1 X120.426 Y126.605 E1.82196
G1 X119.772 Y127.832 E1.84256
G1 X119.459 Y128.325 E1.85121
G1 X118.581 Y129.503 E1.87298
G1 X118.268 Y129.872 E1.88014
G1 X117.622 Y130.544 E1.89395
G1 X117.259 Y130.877 E1.90125
G1 X116.154 Y131.767 E1.92227
G1 X115.707 Y132.078 E1.93033
G1 X114.628 Y132.721 E1.94894
G1 X114.103 Y132.982 E1.95762
G1 X112.572 Y133.604 E1.9821
G1 X111.867 Y133.815 E1.993
G1 X109.992 Y134.187 E2.02132
G1 X109.428 Y134.256 E2.02974
G1 X108.512 Y134.301 E2.04332
G1 X108.015 Y134.294 E2.05069
G1 X106.53 Y134.176 E2.07275
G1 X105.977 Y134.091 E2.08104
G1 X104.799 Y133.823 E2.09894
G1 X104.291 Y133.67 E2.1068
G1 X102.937 Y133.159 E2.12823
G1 X102.5 Y132.963 E2.13533
G1 X101.706 Y132.545 E2.14862
G1 X101.3 Y132.299 E2.15565
G1 X100.131 Y131.487 E2.17674
G1 X99.705 Y131.144 E2.18484
G1 X98.795 Y130.299 E2.20324
G1 X98.49 Y129.98 E2.20977
G1 X97.867 Y129.253 E2.22396
G1 X97.589 Y128.887 E2.23076
G1 X96.913 Y127.877 E2.24877
G1 X96.652 Y127.424 E2.25651
G1 X96.038 Y126.168 E2.27722
G1 X95.811 Y125.59 E2.28642
G1 X95.328 Y123.996 E2.31109
G1 X95.198 Y123.409 E2.32
G1 X95.03 Y122.209 E2.33795
G1 X94.995 Y121.782 E2.34429
G1 X94.968 Y120.833 E2.35836
G1 X94.981 Y120.385 E2.365
G1 X95.085 Y119.196 E2.38268
G1 X95.146 Y118.772 E2.38902
G1 X95.334 Y117.835 E2.40318
G1 X95.414 Y117.509 E2.40815
G1 X95.617 Y116.815 E2.41886
G1 X95.755 Y116.421 E2.42505
G1 X96.223 Y115.29 E2.44318
G1 X96.461 Y114.812 E2.45109
G1 X97.182 Y113.582 E2.47221
G1 X97.45 Y113.185 E2.4793
G1 X98.041 Y112.414 E2.4937
G1 X98.341 Y112.066 E2.5005
G1 X99.189 Y111.196 E2.5185
M204 S625
M205 X6
G0 F4285.7 X99.44 Y111.441
M204 S500
M205 X5
G1 F1200 X99.82 Y111.103 E2.52603
G1 X101.069 Y110.146 E2.54934
G1 X101.437 Y109.899 E2.55591
G1 X102.09 Y109.518 E2.5671
G1 X102.446 Y109.337 E2.57302
G1 X103.739 Y108.768 E2.59395
G1 X104.203 Y108.601 E2.60125
G1 X105.392 Y108.266 E2.61955
G1 X105.779 Y108.18 E2.62542
G1 X106.715 Y108.027 E2.63947
G1 X107.162 Y107.983 E2.64613
G1 X108.6 Y107.933 E2.66744
G1 X109.098 Y107.951 E2.67482
G1 X110.31 Y108.081 E2.69288
G1 X110.791 Y108.167 E2.70012
G1 X112.175 Y108.514 E2.72125
G1 X112.677 Y108.681 E2.72909
G1 X114.012 Y109.239 E2.75052
G1 X114.407 Y109.433 E2.75704
G1 X115.221 Y109.9 E2.77094
G1 X115.592 Y110.145 E2.77753
G1 X116.72 Y110.997 E2.79847
G1 X117.12 Y111.35 E2.80637
G1 X118.135 Y112.392 E2.82792
G1 X118.453 Y112.768 E2.83522
G1 X119.166 Y113.741 E2.85309
G1 X119.428 Y114.157 E2.86037
G1 X120.107 Y115.421 E2.88162
G1 X120.324 Y115.91 E2.88955
G1 X120.815 Y117.294 E2.9113
G1 X120.956 Y117.813 E2.91927
G1 X121.221 Y119.203 E2.94023
G1 X121.281 Y119.73 E2.94809
G1 X121.335 Y121.165 E2.96936
G1 X121.324 Y121.605 E2.97588
G1 X121.241 Y122.553 E2.98997
G1 X121.174 Y122.992 E2.99655
G1 X120.874 Y124.378 E3.01756
G1 X120.737 Y124.849 E3.02483
G1 X120.314 Y125.999 E3.04298
G1 X120.117 Y126.44 E3.05013
G1 X119.463 Y127.667 E3.07073
G1 X119.178 Y128.116 E3.07861
G1 X118.3 Y129.294 E3.10037
G1 X118.015 Y129.63 E3.1069
G1 X117.369 Y130.302 E3.12071
G1 X117.039 Y130.604 E3.12733
G1 X115.934 Y131.494 E3.14835
G1 X115.528 Y131.777 E3.15568
G1 X114.449 Y132.42 E3.17429
G1 X113.971 Y132.658 E3.1822
G1 X112.44 Y133.28 E3.20668
G1 X111.799 Y133.472 E3.21659
G1 X109.924 Y133.844 E3.2449
G1 X109.411 Y133.907 E3.25256
G1 X108.495 Y133.952 E3.26615
G1 X108.043 Y133.945 E3.27284
G1 X106.558 Y133.827 E3.29491
G1 X106.055 Y133.75 E3.30245
G1 X104.877 Y133.482 E3.32034
G1 X104.414 Y133.343 E3.32751
G1 X103.06 Y132.832 E3.34894
G1 X102.663 Y132.653 E3.35539
G1 X101.869 Y132.235 E3.36869
G1 X101.5 Y132.011 E3.37508
G1 X100.331 Y131.199 E3.39617
G1 X99.943 Y130.887 E3.40354
G1 X99.033 Y130.042 E3.42194
G1 X98.755 Y129.753 E3.42788
G1 X98.132 Y129.026 E3.44206
G1 X97.88 Y128.693 E3.44824
G1 X97.204 Y127.683 E3.46625
G1 X96.966 Y127.27 E3.47331
G1 X96.352 Y126.014 E3.49402
G1 X96.145 Y125.488 E3.50239
G1 X95.662 Y123.894 E3.52706
G1 X95.545 Y123.361 E3.53515
G1 X95.377 Y122.161 E3.5531
G1 X95.344 Y121.772 E3.55888
G1 X95.317 Y120.823 E3.57294
G1 X95.329 Y120.416 E3.57898
G1 X95.433 Y119.227 E3.59666
G1 X95.489 Y118.841 E3.60243
G1 X95.677 Y117.904 E3.61659
G1 X95.75 Y117.607 E3.62112
G1 X95.953 Y116.913 E3.63183
G1 X96.079 Y116.555 E3.63745
G1 X96.547 Y115.424 E3.65559
G1 X96.763 Y114.989 E3.66278
G1 X97.484 Y113.759 E3.6839
G1 X97.727 Y113.398 E3.69035
G1 X98.318 Y112.627 E3.70474
G1 X98.592 Y112.311 E3.71093
G1 X99.44 Y111.441 E3.72893
M204 S625
M205 X6
G0 F4285.7 X99.69 Y111.685
M204 S500
M205 X5
G1 F1200 X100.033 Y111.381 E3.73572
G1 X101.282 Y110.424 E3.75903
G1 X101.613 Y110.202 E3.76493
G1 X102.266 Y109.821 E3.77613
G1 X102.587 Y109.657 E3.78147
G1 X103.88 Y109.088 E3.8024
G1 X104.298 Y108.938 E3.80898
G1 X105.487 Y108.603 E3.82727
G1 X105.836 Y108.526 E3.83257
G1 X106.772 Y108.373 E3.84662
G1 X107.174 Y108.333 E3.8526
G1 X108.612 Y108.283 E3.87392
G1 X109.061 Y108.299 E3.88057
G1 X110.273 Y108.429 E3.89863
G1 X110.706 Y108.506 E3.90514
G1 X112.09 Y108.853 E3.92628
G1 X112.542 Y109.004 E3.93334
G1 X113.877 Y109.562 E3.95477
G1 X114.233 Y109.737 E3.96065
G1 X115.047 Y110.204 E3.97455
G1 X115.381 Y110.424 E3.98047
G1 X116.509 Y111.276 E4.00141
G1 X116.869 Y111.595 E4.00854
G1 X117.884 Y112.637 E4.03009
G1 X118.171 Y112.975 E4.03666
G1 X118.884 Y113.948 E4.05453
G1 X119.12 Y114.323 E4.06109
G1 X119.799 Y115.587 E4.08234
G1 X119.994 Y116.027 E4.08947
G1 X120.485 Y117.411 E4.11123
G1 X120.612 Y117.878 E4.1184
G1 X120.877 Y119.268 E4.13936
G1 X120.931 Y119.744 E4.14645
G1 X120.985 Y121.179 E4.16773
G1 X120.975 Y121.575 E4.17359
G1 X120.892 Y122.523 E4.18769
G1 X120.832 Y122.918 E4.19361
G1 X120.532 Y124.304 E4.21462
G1 X120.409 Y124.728 E4.22115
G1 X119.986 Y125.878 E4.23931
G1 X119.808 Y126.275 E4.24575
G1 X119.154 Y127.502 E4.26635
G1 X118.898 Y127.906 E4.27343
G1 X118.02 Y129.084 E4.2952
G1 X117.763 Y129.387 E4.30108
G1 X117.117 Y130.059 E4.31489
G1 X116.82 Y130.332 E4.32087
G1 X115.715 Y131.222 E4.34188
G1 X115.348 Y131.476 E4.3485
G1 X114.269 Y132.119 E4.3671
G1 X113.839 Y132.334 E4.37422
G1 X112.308 Y132.956 E4.3987
G1 X111.731 Y133.128 E4.40762
G1 X109.856 Y133.5 E4.43594
G1 X109.394 Y133.557 E4.44283
G1 X108.478 Y133.602 E4.45642
G1 X108.071 Y133.596 E4.46245
G1 X106.586 Y133.478 E4.48452
G1 X106.133 Y133.409 E4.4913
G1 X104.955 Y133.141 E4.5092
G1 X104.538 Y133.015 E4.51565
G1 X103.184 Y132.504 E4.53709
G1 X102.826 Y132.343 E4.54291
G1 X102.032 Y131.925 E4.5562
G1 X101.7 Y131.724 E4.56195
G1 X100.531 Y130.912 E4.58303
G1 X100.182 Y130.631 E4.58967
G1 X99.272 Y129.786 E4.60806
G1 X99.021 Y129.525 E4.61343
G1 X98.398 Y128.798 E4.62761
G1 X98.17 Y128.498 E4.63319
G1 X97.494 Y127.488 E4.6512
G1 X97.281 Y127.116 E4.65755
G1 X96.667 Y125.86 E4.67826
G1 X96.48 Y125.387 E4.68579
G1 X95.997 Y123.793 E4.71046
G1 X95.892 Y123.312 E4.71776
G1 X95.724 Y122.112 E4.7357
G1 X95.694 Y121.762 E4.74091
G1 X95.667 Y120.813 E4.75497
G1 X95.678 Y120.446 E4.76041
G1 X95.782 Y119.257 E4.77809
G1 X95.832 Y118.909 E4.7833
G1 X96.02 Y117.972 E4.79746
G1 X96.086 Y117.706 E4.80152
G1 X96.289 Y117.012 E4.81223
G1 X96.402 Y116.689 E4.8173
G1 X96.87 Y115.558 E4.83543
G1 X97.065 Y115.166 E4.84191
G1 X97.786 Y113.936 E4.86303
G1 X98.005 Y113.61 E4.86885
G1 X98.596 Y112.839 E4.88324
G1 X98.842 Y112.555 E4.88881
G1 X99.69 Y111.685 E4.9068
M204 S625
M205 X6
G1 F1500 E-1.5932
G0 F4285.7 X99.734 Y111.816
G0 X102.925 Y115.07
G0 X103.182 Y115.213
M204 S500
M205 X5
;TYPE:WALL-INNER
G1 F1500 E4.9068
G1 F1200 X103.526 Y114.922 E4.91252
G1 X103.912 Y114.633 E4.91865
G1 X104.278 Y114.392 E4.92421
G1 X104.685 Y114.157 E4.93018
G1 X105.09 Y113.955 E4.93592
G1 X105.524 Y113.77 E4.94192
G1 X105.949 Y113.617 E4.94765
G1 X106.395 Y113.487 E4.95355
G1 X106.698 Y113.418 E4.95749
G1 X106.829 Y113.388 E4.9592
G1 X106.913 Y113.374 E4.96028
G0 X106.913 Y113.388
G1 X106.913 Y113.523 E4.96152
G1 X106.913 Y123.276 E5.08535
G1 X106.913 Y123.277 E5.08536
G1 X106.913 Y123.543 E5.08874
G1 X106.686 Y123.404 E5.09065
G1 X106.373 Y123.212 E5.09531
G1 X105.897 Y122.944 E5.10225
G1 X105.494 Y122.732 E5.10803
G1 X105.195 Y122.591 E5.11223
G1 X103.605 Y121.914 E5.13417
G1 X103.397 Y121.826 E5.13704
G1 X103.397 Y122.051 E5.1387
G1 X103.397 Y122.052 E5.13871
G1 X103.397 Y125.221 E5.17895
G1 X104.494 Y125.791 E5.19465
G1 X104.817 Y125.971 E5.19934
G1 X105.115 Y126.155 E5.20379
G1 X105.394 Y126.346 E5.20808
G1 X105.666 Y126.55 E5.2124
G1 X106.24 Y127.011 E5.22175
G1 X106.663 Y127.413 E5.22916
G1 X106.86 Y127.616 E5.23275
G1 X107.035 Y127.816 E5.23612
G1 X107.192 Y128.018 E5.23937
G1 X107.325 Y128.212 E5.24236
G1 X107.424 Y128.373 E5.24476
G1 X107.485 Y128.471 E5.24622
G1 X107.564 Y128.599 E5.24813
G1 X107.319 Y128.573 E5.24905
G1 X107.205 Y128.554 E5.25029
G1 X106.824 Y128.49 E5.25519
G1 X106.387 Y128.39 E5.26088
G1 X105.964 Y128.268 E5.26647
G1 X105.505 Y128.101 E5.27267
G1 X105.108 Y127.932 E5.27815
G1 X104.664 Y127.711 E5.28445
G1 X104.271 Y127.483 E5.29022
G1 X103.91 Y127.244 E5.29572
G1 X103.526 Y126.957 E5.3018
G1 X103.177 Y126.661 E5.30761
G1 X102.839 Y126.338 E5.31355
G1 X102.526 Y126 E5.3194
G1 X102.243 Y125.654 E5.32507
G1 X101.966 Y125.275 E5.33103
G1 X101.722 Y124.892 E5.3368
G1 X101.495 Y124.486 E5.34271
G1 X101.298 Y124.075 E5.34849
G1 X101.122 Y123.645 E5.35439
G1 X100.972 Y123.204 E5.36031
G1 X100.85 Y122.767 E5.36607
G1 X100.75 Y122.292 E5.37223
G1 X100.685 Y121.856 E5.37783
G1 X100.643 Y121.387 E5.38381
G1 X100.63 Y120.945 E5.38942
G1 X100.643 Y120.492 E5.39518
G1 X100.685 Y120.024 E5.40114
G1 X100.75 Y119.587 E5.40675
G1 X100.851 Y119.108 E5.41297
G1 X100.969 Y118.683 E5.41857
G1 X101.124 Y118.228 E5.42467
G1 X101.298 Y117.804 E5.43049
G1 X101.498 Y117.388 E5.43635
G1 X101.726 Y116.981 E5.44227
G1 X101.959 Y116.614 E5.44779
G1 X102.248 Y116.219 E5.45401
G1 X102.526 Y115.879 E5.45959
G1 X102.843 Y115.537 E5.46551
G1 X103.182 Y115.213 E5.47146
M204 S625
M205 X6
G0 F4285.7 X107.185 Y113.426
G0 X109.998 Y113.426
G0 X110.27 Y113.604
M204 S500
M205 X5
G1 F1200 X110.27 Y113.549 E5.47216
G1 X110.27 Y113.492 E5.47288
G1 X110.489 Y113.549 E5.47389
G1 X110.541 Y113.566 E5.47451
G1 X110.911 Y113.686 E5.47945
G1 X111.367 Y113.865 E5.48567
G1 X111.783 Y114.057 E5.49149
G1 X112.164 Y114.262 E5.49698
G1 X112.581 Y114.52 E5.50321
G1 X112.944 Y114.776 E5.50885
G1 X113.307 Y115.065 E5.51474
G1 X113.648 Y115.372 E5.52056
G1 X113.977 Y115.706 E5.52652
G1 X114.281 Y116.054 E5.53238
G1 X114.55 Y116.4 E5.53795
G1 X114.816 Y116.791 E5.54395
G1 X115.062 Y117.203 E5.55005
G1 X115.265 Y117.594 E5.55564
G1 X115.456 Y118.023 E5.5616
G1 X115.612 Y118.438 E5.56723
G1 X115.755 Y118.903 E5.57341
G1 X115.858 Y119.325 E5.57892
G1 X115.939 Y119.769 E5.58466
G1 X115.999 Y120.263 E5.59097
G1 X116.025 Y120.695 E5.59647
G1 X116.025 Y121.184 E5.60268
G1 X116 Y121.606 E5.60805
G1 X115.94 Y122.103 E5.6144
G1 X115.861 Y122.539 E5.62003
G1 X115.752 Y122.986 E5.62587
G1 X115.619 Y123.422 E5.63166
G1 X115.455 Y123.858 E5.63757
G1 X115.273 Y124.267 E5.64326
G1 X115.057 Y124.686 E5.64924
G1 X114.822 Y125.079 E5.65506
G1 X114.553 Y125.475 E5.66113
