;START_OF_HEADER
;HEADER_VERSION:0.1
;FLAVOR:Griffin
;GENERATOR.NAME:Cura_SteamEngine
;GENERATOR.VERSION:2.4.0
;GENERATOR.BUILD_DATE:2017-02-13
;TARGET_MACHINE.NAME:Ultimaker 3
;EXTRUDER_TRAIN.0.INITIAL_TEMPERATURE:205
;EXTRUDER_TRAIN.0.MATERIAL.VOLUME_USED:232
;EXTRUDER_TRAIN.0.MATERIAL.GUID:506c9f0d-e3aa-4bd4-b2d2-23e2425b1aa9
;EXTRUDER_TRAIN.0.NOZZLE.DIAMETER:0.4
;EXTRUDER_TRAIN.1.INITIAL_TEMPERATURE:100
;EXTRUDER_TRAIN.1.MATERIAL.VOLUME_USED:196
;EXTRUDER_TRAIN.1.MATERIAL.GUID:506c9f0d-e3aa-4bd4-b2d2-23e2425b1aa9
;EXTRUDER_TRAIN.1.NOZZLE.DIAMETER:0.4
;BUILD_PLATE.INITIAL_TEMPERATURE:60
;PRINT.TIME:563
;PRINT.SIZE.MIN.X:83.741
;PRINT.SIZE.MIN.Y:6
;PRINT.SIZE.MIN.Z:0.27
;PRINT.SIZE.MAX.X:213
;PRINT.SIZE.MAX.Y:207
;PRINT.SIZE.MAX.Z:4
;END_OF_HEADER
;Generated with Cura_SteamEngine 2.4.0

T0
G92 E0

M109 S205
G0 F15000 X170 Y6 Z2
G280
G1 F1500 E-6.5
;LAYER_COUNT:13
;LAYER:0
M107
M104 T1 S64.5
M104 T1 S205
M204 S625
M205 X6
G1 Z4
G0 F4285.7 X106.518 Y98.108 Z2.27
M204 S500
M205 X5
;TYPE:SKIRT
G1 Z0.27
G1 F1500 E0
G1 F1200 X106.934 Y97.683 E0.00881
G1 X107.874 Y96.849 E0.02742
G1 X108.244 Y96.556 E0.03442
G1 X108.996 Y96.026 E0.04804
G1 X109.444 Y95.75 E0.05584
G1 X110.717 Y95.072 E0.0772
G1 X111.461 Y94.763 E0.08914
G1 X113.506 Y94.134 E0.12083
G1 X114.244 Y93.977 E0.13201
G1 X115.458 Y93.831 E0.15012
G1 X116.044 Y93.802 E0.15881
G1 X117.493 Y93.83 E0.18028
G1 X118.131 Y93.891 E0.18978
G1 X119.541 Y94.135 E0.21097
G1 X120.157 Y94.29 E0.22038
G1 X121.513 Y94.742 E0.24156
G1 X122.001 Y94.939 E0.24935
G1 X122.845 Y95.343 E0.26321
G1 X123.27 Y95.577 E0.2704
G1 X124.299 Y96.224 E0.2884
G1 X124.681 Y96.496 E0.29535
G1 X125.397 Y97.066 E0.30891
G1 X125.754 Y97.383 E0.31598
G1 X126.625 Y98.254 E0.33423
G1 X126.95 Y98.621 E0.34149
G1 X127.541 Y99.368 E0.3556
G1 X127.816 Y99.758 E0.36267
G1 X128.441 Y100.763 E0.3802
G1 X128.712 Y101.275 E0.38878
G1 X129.301 Y102.597 E0.41022
G1 X129.517 Y103.202 E0.41974
G1 X129.899 Y104.599 E0.44119
G1 X130.002 Y105.083 E0.44852
G1 X130.109 Y105.792 E0.45914
G1 X130.153 Y106.263 E0.46615
G1 X130.207 Y107.699 E0.48744
G1 X130.184 Y108.33 E0.49679
G1 X130.025 Y109.743 E0.51785
G1 X129.902 Y110.382 E0.52749
G1 X129.516 Y111.798 E0.54923
G1 X129.349 Y112.29 E0.55693
G1 X128.998 Y113.146 E0.57063
G1 X128.767 Y113.622 E0.57847
G1 X128.073 Y114.85 E0.59937
G1 X127.746 Y115.344 E0.60814
G1 X126.989 Y116.33 E0.62656
G1 X126.675 Y116.694 E0.63368
G1 X126.033 Y117.358 E0.64736
G1 X125.648 Y117.71 E0.65509
G1 X124.547 Y118.598 E0.67604
G1 X124.058 Y118.938 E0.68486
G1 X122.979 Y119.581 E0.70347
G1 X122.412 Y119.864 E0.71286
G1 X120.912 Y120.476 E0.73685
G1 X120.415 Y120.644 E0.74463
G1 X119.717 Y120.832 E0.75533
G1 X119.404 Y120.903 E0.76009
G1 X118.707 Y121.035 E0.7706
G1 X118.392 Y121.083 E0.77532
G1 X117.661 Y121.165 E0.78621
G1 X117.214 Y121.191 E0.79285
G1 X115.956 Y121.198 E0.81148
G1 X115.37 Y121.16 E0.82018
G1 X114.007 Y120.977 E0.84055
G1 X113.391 Y120.847 E0.84988
G1 X111.989 Y120.44 E0.8715
G1 X111.501 Y120.266 E0.87918
G1 X110.648 Y119.9 E0.89293
G1 X110.166 Y119.655 E0.90094
G1 X108.918 Y118.918 E0.92241
G1 X108.391 Y118.55 E0.93193
G1 X107.281 Y117.642 E0.95317
G1 X106.849 Y117.235 E0.96196
G1 X106.03 Y116.346 E0.97987
G1 X105.734 Y115.987 E0.98676
G1 X105.18 Y115.234 E1.00061
G1 X104.894 Y114.789 E1.00845
G1 X104.199 Y113.544 E1.02957
G1 X103.942 Y112.996 E1.03853
G1 X103.497 Y111.834 E1.05697
G1 X103.355 Y111.389 E1.06389
G1 X103.123 Y110.499 E1.07751
G1 X103.027 Y110.022 E1.08472
G1 X102.856 Y108.807 E1.10289
G1 X102.817 Y108.337 E1.10988
G1 X102.791 Y107.416 E1.12353
G1 X102.805 Y106.933 E1.13069
G1 X102.909 Y105.732 E1.14854
G1 X103 Y105.15 E1.15727
G1 X103.33 Y103.714 E1.1791
G1 X103.48 Y103.208 E1.18691
G1 X103.797 Y102.342 E1.20057
G1 X103.993 Y101.891 E1.20786
G1 X104.55 Y100.787 E1.22618
G1 X104.793 Y100.367 E1.23336
G1 X105.319 Y99.568 E1.24753
G1 X105.628 Y99.156 E1.25516
G1 X106.518 Y98.108 E1.27553
M204 S625
M205 X6
G0 F4285.7 X106.784 Y98.335
M204 S500
M205 X5
G1 F1200 X107.166 Y97.944 E1.28363
G1 X108.106 Y97.11 E1.30224
G1 X108.446 Y96.842 E1.30866
G1 X109.198 Y96.312 E1.32228
G1 X109.608 Y96.059 E1.32942
G1 X110.881 Y95.381 E1.35079
G1 X111.564 Y95.097 E1.36174
G1 X113.609 Y94.468 E1.39344
G1 X114.285 Y94.325 E1.40367
G1 X115.499 Y94.179 E1.42179
G1 X116.037 Y94.152 E1.42977
G1 X117.486 Y94.18 E1.45123
G1 X118.072 Y94.236 E1.45995
G1 X119.482 Y94.48 E1.48115
G1 X120.046 Y94.622 E1.48977
G1 X121.402 Y95.074 E1.51094
G1 X121.85 Y95.255 E1.5181
G1 X122.694 Y95.659 E1.53196
G1 X123.084 Y95.874 E1.53856
G1 X124.113 Y96.521 E1.55656
G1 X124.463 Y96.769 E1.56292
G1 X125.179 Y97.339 E1.57647
G1 X125.506 Y97.631 E1.58297
G1 X126.377 Y98.502 E1.60121
G1 X126.676 Y98.838 E1.60788
G1 X127.267 Y99.585 E1.62199
G1 X127.519 Y99.943 E1.62847
G1 X128.144 Y100.948 E1.646
G1 X128.393 Y101.417 E1.65387
G1 X128.982 Y102.739 E1.67531
G1 X129.18 Y103.294 E1.68404
G1 X129.562 Y104.691 E1.70549
G1 X129.656 Y105.135 E1.71221
G1 X129.763 Y105.844 E1.72283
G1 X129.803 Y106.276 E1.72926
G1 X129.857 Y107.712 E1.75055
G1 X129.836 Y108.291 E1.75913
G1 X129.677 Y109.704 E1.78019
G1 X129.565 Y110.29 E1.78903
G1 X129.179 Y111.706 E1.81077
G1 X129.025 Y112.157 E1.81783
G1 X128.674 Y113.013 E1.83154
G1 X128.463 Y113.45 E1.83873
G1 X127.769 Y114.678 E1.85962
G1 X127.469 Y115.131 E1.86767
G1 X126.712 Y116.117 E1.88608
G1 X126.424 Y116.45 E1.8926
G1 X125.782 Y117.114 E1.90629
G1 X125.429 Y117.437 E1.91337
G1 X124.328 Y118.325 E1.93433
G1 X123.879 Y118.638 E1.94244
G1 X122.8 Y119.281 E1.96104
G1 X122.28 Y119.54 E1.96965
G1 X120.78 Y120.152 E1.99365
G1 X120.324 Y120.306 E2.00078
G1 X119.626 Y120.494 E2.01148
G1 X119.339 Y120.559 E2.01584
G1 X118.642 Y120.691 E2.02635
G1 X118.353 Y120.735 E2.03068
G1 X117.622 Y120.817 E2.04158
G1 X117.212 Y120.841 E2.04766
G1 X115.954 Y120.848 E2.0663
G1 X115.416 Y120.814 E2.07428
G1 X114.053 Y120.631 E2.09465
G1 X113.489 Y120.511 E2.1032
G1 X112.087 Y120.104 E2.12482
G1 X111.639 Y119.944 E2.13187
G1 X110.786 Y119.578 E2.14562
G1 X110.344 Y119.354 E2.15296
G1 X109.096 Y118.617 E2.17443
G1 X108.612 Y118.279 E2.18317
G1 X107.502 Y117.371 E2.20442
G1 X107.106 Y116.998 E2.21248
G1 X106.287 Y116.109 E2.23038
G1 X106.016 Y115.779 E2.23671
G1 X105.462 Y115.026 E2.25055
G1 X105.199 Y114.619 E2.25773
G1 X104.504 Y113.374 E2.27885
G1 X104.269 Y112.871 E2.28708
G1 X103.824 Y111.709 E2.30551
G1 X103.693 Y111.3 E2.31187
G1 X103.461 Y110.41 E2.3255
G1 X103.374 Y109.973 E2.3321
G1 X103.203 Y108.758 E2.35027
G1 X103.167 Y108.327 E2.35668
G1 X103.141 Y107.406 E2.37033
G1 X103.153 Y106.963 E2.37689
G1 X103.257 Y105.762 E2.39475
G1 X103.341 Y105.228 E2.40276
G1 X103.671 Y103.792 E2.42458
G1 X103.809 Y103.328 E2.43175
G1 X104.126 Y102.462 E2.44542
G1 X104.305 Y102.049 E2.45208
G1 X104.862 Y100.945 E2.4704
G1 X105.085 Y100.559 E2.477
G1 X105.611 Y99.76 E2.49117
G1 X105.894 Y99.383 E2.49816
G1 X106.784 Y98.335 E2.51853
M204 S625
M205 X6
G0 F4285.7 X107.051 Y98.561
M204 S500
M205 X5
G1 F1200 X107.399 Y98.206 E2.52589
G1 X108.339 Y97.372 E2.5445
G1 X108.647 Y97.128 E2.55032
G1 X109.399 Y96.598 E2.56395
G1 X109.773 Y96.368 E2.57046
G1 X111.046 Y95.69 E2.59182
G1 X111.667 Y95.432 E2.60178
G1 X113.712 Y94.803 E2.63348
G1 X114.327 Y94.672 E2.64279
G1 X115.541 Y94.526 E2.6609
G1 X116.03 Y94.502 E2.66816
G1 X117.479 Y94.53 E2.68963
G1 X118.012 Y94.581 E2.69756
G1 X119.422 Y94.825 E2.71875
G1 X119.936 Y94.954 E2.7266
G1 X121.292 Y95.406 E2.74778
G1 X121.699 Y95.57 E2.75428
G1 X122.543 Y95.974 E2.76814
G1 X122.897 Y96.17 E2.77413
G1 X123.926 Y96.817 E2.79214
G1 X124.245 Y97.043 E2.79793
G1 X124.961 Y97.613 E2.81149
G1 X125.259 Y97.878 E2.81739
G1 X126.13 Y98.749 E2.83564
G1 X126.401 Y99.055 E2.8417
G1 X126.992 Y99.802 E2.85581
G1 X127.221 Y100.127 E2.8617
G1 X127.846 Y101.132 E2.87923
G1 X128.073 Y101.559 E2.88639
G1 X128.662 Y102.881 E2.90783
G1 X128.842 Y103.386 E2.91577
G1 X129.224 Y104.783 E2.93722
G1 X129.31 Y105.187 E2.94334
G1 X129.417 Y105.896 E2.95397
G1 X129.454 Y106.29 E2.95983
G1 X129.508 Y107.726 E2.98111
G1 X129.488 Y108.252 E2.98891
G1 X129.329 Y109.665 E3.00997
G1 X129.227 Y110.198 E3.01801
G1 X128.841 Y111.614 E3.03975
G1 X128.701 Y112.024 E3.04617
G1 X128.35 Y112.88 E3.05988
G1 X128.158 Y113.277 E3.06641
G1 X127.464 Y114.505 E3.0873
G1 X127.191 Y114.918 E3.09464
G1 X126.434 Y115.904 E3.11305
G1 X126.172 Y116.207 E3.11899
G1 X125.53 Y116.871 E3.13267
G1 X125.209 Y117.165 E3.13912
G1 X124.108 Y118.053 E3.16007
G1 X123.7 Y118.337 E3.16743
G1 X122.621 Y118.98 E3.18604
G1 X122.148 Y119.216 E3.19387
G1 X120.648 Y119.828 E3.21787
G1 X120.233 Y119.968 E3.22436
G1 X119.535 Y120.156 E3.23506
G1 X119.274 Y120.215 E3.23903
G1 X118.577 Y120.347 E3.24954
G1 X118.314 Y120.387 E3.25348
G1 X117.583 Y120.469 E3.26437
G1 X117.21 Y120.491 E3.26991
G1 X115.952 Y120.498 E3.28854
G1 X115.463 Y120.467 E3.2958
G1 X114.1 Y120.284 E3.31617
G1 X113.586 Y120.175 E3.32396
G1 X112.184 Y119.768 E3.34558
G1 X111.777 Y119.622 E3.35199
G1 X110.924 Y119.256 E3.36574
G1 X110.522 Y119.052 E3.37242
G1 X109.274 Y118.315 E3.39389
G1 X108.834 Y118.008 E3.40183
G1 X107.724 Y117.1 E3.42308
G1 X107.363 Y116.76 E3.43042
G1 X106.544 Y115.871 E3.44833
G1 X106.298 Y115.572 E3.45406
G1 X105.744 Y114.819 E3.46791
G1 X105.505 Y114.448 E3.47445
G1 X104.81 Y113.203 E3.49557
G1 X104.596 Y112.746 E3.50305
G1 X104.151 Y111.584 E3.52148
G1 X104.032 Y111.212 E3.52726
G1 X103.8 Y110.322 E3.54089
G1 X103.72 Y109.924 E3.5469
G1 X103.549 Y108.709 E3.56508
G1 X103.516 Y108.317 E3.5709
G1 X103.49 Y107.396 E3.58455
G1 X103.502 Y106.993 E3.59053
G1 X103.606 Y105.792 E3.60838
G1 X103.683 Y105.307 E3.61566
G1 X104.013 Y103.871 E3.63748
G1 X104.138 Y103.448 E3.64402
G1 X104.455 Y102.582 E3.65768
G1 X104.618 Y102.206 E3.66375
G1 X105.175 Y101.102 E3.68207
G1 X105.378 Y100.752 E3.68806
G1 X105.904 Y99.953 E3.70223
G1 X106.161 Y99.609 E3.70859
G1 X107.051 Y98.561 E3.72896
M204 S625
M205 X6
G0 F4285.7 X107.318 Y98.788
M204 S500
M205 X5
G1 F1200 X107.631 Y98.468 E3.73559
G1 X108.571 Y97.634 E3.7542
G1 X108.849 Y97.414 E3.75946
G1 X109.601 Y96.884 E3.77308
G1 X109.937 Y96.677 E3.77893
G1 X111.21 Y95.999 E3.8003
G1 X111.77 Y95.766 E3.80928
G1 X113.815 Y95.137 E3.84097
G1 X114.369 Y95.02 E3.84936
G1 X115.583 Y94.874 E3.86747
G1 X116.023 Y94.852 E3.874
G1 X117.472 Y94.88 E3.89547
G1 X117.952 Y94.925 E3.90261
G1 X119.362 Y95.169 E3.92381
G1 X119.825 Y95.286 E3.93088
G1 X121.181 Y95.738 E3.95206
G1 X121.548 Y95.886 E3.95792
G1 X122.392 Y96.29 E3.97178
G1 X122.711 Y96.466 E3.97718
G1 X123.74 Y97.113 E3.99518
G1 X124.027 Y97.317 E4.0004
G1 X124.743 Y97.887 E4.01395
G1 X125.011 Y98.126 E4.01927
G1 X125.882 Y98.997 E4.03752
G1 X126.127 Y99.272 E4.04298
G1 X126.718 Y100.019 E4.05709
G1 X126.924 Y100.312 E4.06239
G1 X127.549 Y101.317 E4.07992
G1 X127.753 Y101.702 E4.08638
G1 X128.342 Y103.024 E4.10782
G1 X128.505 Y103.479 E4.11498
G1 X128.887 Y104.876 E4.13643
G1 X128.963 Y105.239 E4.14192
G1 X129.07 Y105.948 E4.15254
G1 X129.104 Y106.303 E4.15783
G1 X129.158 Y107.739 E4.17911
G1 X129.14 Y108.213 E4.18614
G1 X128.981 Y109.626 E4.2072
G1 X128.889 Y110.106 E4.21444
G1 X128.503 Y111.522 E4.23619
G1 X128.378 Y111.892 E4.24197
G1 X128.027 Y112.748 E4.25568
G1 X127.853 Y113.105 E4.26156
G1 X127.159 Y114.333 E4.28245
G1 X126.913 Y114.704 E4.28905
G1 X126.156 Y115.69 E4.30746
G1 X125.921 Y115.964 E4.31281
G1 X125.279 Y116.628 E4.32649
G1 X124.989 Y116.892 E4.3323
G1 X123.888 Y117.78 E4.35325
G1 X123.52 Y118.036 E4.35989
G1 X122.441 Y118.679 E4.3785
G1 X122.015 Y118.892 E4.38555
G1 X120.515 Y119.504 E4.40955
G1 X120.142 Y119.63 E4.41539
G1 X119.444 Y119.818 E4.42609
G1 X119.209 Y119.872 E4.42967
G1 X118.512 Y120.004 E4.44017
G1 X118.275 Y120.039 E4.44372
G1 X117.544 Y120.121 E4.45462
G1 X117.208 Y120.141 E4.45961
G1 X115.95 Y120.148 E4.47824
G1 X115.51 Y120.12 E4.48477
G1 X114.147 Y119.937 E4.50514
G1 X113.684 Y119.839 E4.51215
G1 X112.282 Y119.432 E4.53378
G1 X111.915 Y119.301 E4.53955
G1 X111.062 Y118.935 E4.5533
G1 X110.7 Y118.751 E4.55932
G1 X109.452 Y118.014 E4.58079
G1 X109.056 Y117.738 E4.58794
G1 X107.946 Y116.83 E4.60918
G1 X107.621 Y116.523 E4.6158
G1 X106.802 Y115.634 E4.63371
G1 X106.58 Y115.365 E4.63888
G1 X106.026 Y114.612 E4.65272
G1 X105.811 Y114.278 E4.65861
G1 X105.116 Y113.033 E4.67973
G1 X104.923 Y112.62 E4.68648
G1 X104.478 Y111.458 E4.70491
G1 X104.371 Y111.124 E4.71011
G1 X104.139 Y110.234 E4.72373
G1 X104.067 Y109.875 E4.72916
G1 X103.896 Y108.66 E4.74733
G1 X103.866 Y108.308 E4.75257
G1 X103.84 Y107.387 E4.76622
G1 X103.851 Y107.023 E4.77161
G1 X103.955 Y105.822 E4.78947
G1 X104.024 Y105.385 E4.79602
G1 X104.354 Y103.949 E4.81785
G1 X104.466 Y103.569 E4.82372
G1 X104.783 Y102.703 E4.83738
G1 X104.93 Y102.364 E4.84285
G1 X105.487 Y101.26 E4.86117
G1 X105.67 Y100.944 E4.86658
G1 X106.196 Y100.145 E4.88075
G1 X106.428 Y99.836 E4.88647
G1 X107.318 Y98.788 E4.90684
M204 S625
M205 X6
G1 F1500 E-1.59316
G0 F4285.7 X107.558 Y98.719
G0 X110.748 Y101.975
G0 X111.017 Y102.098
M204 S500
M205 X5
;TYPE:WALL-INNER
G1 F1500 E4.90684
G1 F1200 X111.348 Y101.782 E4.91265
G1 X111.697 Y101.484 E4.91848
G1 X112.085 Y101.194 E4.92463
G1 X112.444 Y100.957 E4.93009
G1 X112.848 Y100.723 E4.93602
G1 X113.271 Y100.511 E4.94202
G1 X113.692 Y100.333 E4.94783
G1 X114.123 Y100.178 E4.95364
G1 X114.567 Y100.049 E4.95951
G1 X114.87 Y99.979 E4.96346
G1 X115 Y99.95 E4.96515
G1 X115.086 Y99.936 E4.96626
G0 X115.086 Y99.95
G1 X115.086 Y100.084 E4.96749
G1 X115.086 Y109.836 E5.09131
G1 X115.086 Y109.837 E5.09132
G1 X115.086 Y110.103 E5.0947
G1 X114.859 Y109.964 E5.09661
G1 X114.533 Y109.765 E5.10146
G1 X114.059 Y109.498 E5.10837
G1 X113.667 Y109.293 E5.11398
G1 X113.363 Y109.148 E5.11826
G1 X111.778 Y108.475 E5.14012
G1 X111.57 Y108.387 E5.14299
G1 X111.57 Y108.612 E5.14466
G1 X111.57 Y108.613 E5.14467
G1 X111.57 Y111.784 E5.18493
G1 X112.684 Y112.36 E5.20086
G1 X112.99 Y112.532 E5.20531
G1 X113.294 Y112.719 E5.20984
G1 X113.577 Y112.913 E5.2142
G1 X113.839 Y113.109 E5.21836
G1 X114.414 Y113.572 E5.22773
G1 X114.836 Y113.973 E5.23512
G1 X115.023 Y114.166 E5.23853
G1 X115.219 Y114.388 E5.24229
G1 X115.366 Y114.578 E5.24534
G1 X115.497 Y114.77 E5.24829
G1 X115.597 Y114.932 E5.25071
G1 X115.657 Y115.03 E5.25217
G1 X115.736 Y115.158 E5.25408
G1 X115.492 Y115.133 E5.25474
G1 X115.378 Y115.114 E5.25597
G1 X114.999 Y115.05 E5.26085
G1 X114.567 Y114.951 E5.26648
G1 X114.129 Y114.824 E5.27227
G1 X113.683 Y114.663 E5.27829
G1 X113.281 Y114.492 E5.28384
G1 X112.837 Y114.271 E5.29013
G1 X112.444 Y114.043 E5.2959
G1 X112.083 Y113.804 E5.3014
G1 X111.697 Y113.516 E5.30751
G1 X111.348 Y113.218 E5.31334
G1 X111.017 Y112.902 E5.31915
G1 X110.698 Y112.559 E5.3251
G1 X110.416 Y112.214 E5.33076
G1 X110.139 Y111.835 E5.33672
G1 X109.895 Y111.452 E5.34248
G1 X109.669 Y111.046 E5.34838
G1 X109.471 Y110.635 E5.35418
G1 X109.295 Y110.205 E5.36008
G1 X109.145 Y109.764 E5.36599
G1 X109.023 Y109.327 E5.37175
G1 X108.923 Y108.852 E5.37791
G1 X108.858 Y108.415 E5.38352
G1 X108.816 Y107.947 E5.38949
G1 X108.803 Y107.505 E5.3951
G1 X108.816 Y107.053 E5.40085
G1 X108.858 Y106.585 E5.40681
G1 X108.923 Y106.148 E5.41242
G1 X109.024 Y105.669 E5.41864
G1 X109.142 Y105.244 E5.42424
G1 X109.297 Y104.789 E5.43034
G1 X109.471 Y104.365 E5.43616
G1 X109.68 Y103.933 E5.44225
G1 X109.895 Y103.547 E5.44786
G1 X110.132 Y103.175 E5.45346
G1 X110.421 Y102.78 E5.45968
G1 X110.698 Y102.441 E5.46524
G1 X111.017 Y102.098 E5.47118
M204 S625
M205 X6
G0 F4285.7 X115.358 Y99.987
G0 X118.171 Y99.987
G0 X118.443 Y100.164
M204 S500
M205 X5
G1 F1200 X118.443 Y100.111 E5.47186
G1 X118.443 Y100.053 E5.47259
G1 X118.665 Y100.111 E5.47364
G1 X118.715 Y100.127 E5.47423
G1 X119.083 Y100.247 E5.47915
G1 X119.539 Y100.426 E5.48537
G1 X119.955 Y100.618 E5.49118
G1 X120.347 Y100.829 E5.49684
G1 X120.738 Y101.071 E5.50268
G1 X121.133 Y101.348 E5.5088
G1 X121.48 Y101.626 E5.51445
G1 X121.819 Y101.932 E5.52025
G1 X122.143 Y102.261 E5.52611
G1 X122.465 Y102.629 E5.53232
G1 X122.721 Y102.961 E5.53764
G1 X122.998 Y103.367 E5.54388
G1 X123.23 Y103.754 E5.54961
G1 X123.429 Y104.137 E5.55509
G1 X123.628 Y104.584 E5.5613
G1 X123.791 Y105.017 E5.56718
